!!!!SEGMENT: pl-sa--228-a-vi-32--013_luna-georgius--litania-ex-d-agnus-dei.krn
!!!cenid: 17xx:458
!!!COM: Luna, Georgius
!!!COM-rismID: pe41010079
!!!CDT:
!!!CNT:
!!!OPR: Litania ex D
!!!OTL: Agnus Dei
!!!OMV: 013
!!!PDT:
!!!AGN: Sacred; Mass
!!!SMS-siglum: PL-SA
!!!SMS-shelfmark: 228/A VI 32
!!!SMS-shelfwork: 001-013 M
!!!SMS-variant: Violino Primo: PL-SA 228/A VI 32:13 i 15
!!!SMS-altvar: Violino Imo: PL-SA 228/A VI 32:32
!!!NIFC-rismSourceID: 1001068968
!!!NIFC-islandoraID:
!!!URL-pdf-islandora:
!!!URL-scan: https://bc.bdsandomierz.pl/dlibra/publication/1604/edition/1572/content @EN{Scan in the Sandomierz Diocese Digital Library} @PL{Skany w portalu Cyfrowa Biblioteka Diecezjalna w Sandomierzu}
!!!ONB-nifc: UWAGA: części Litanii: Sinfonia, Kyrie, Pater de caelis, Sancta trinitas, Sancta Maria,
!!!AIN: 3 empty 1 tenor 2 violn 1 vox
!!!key:
**kern	**dynam	**kern	**dynam	**kern	**dynam	**kern	**text	**kern	**text	**kern	**kern
*part7	*part7	*part6	*part6	*part5	*part5	*part4	*part4	*part3	*part3	*part2	*part1
*staff7	*	*staff6	*	*staff5	*	*staff4	*staff4	*staff3	*staff3	*staff2	*staff1
*Iempty	*	*Ivioln	*	*Ivioln	*	*Itenor	*	*Ivox	*	*Iempty	*Iempty
*I"Fondamemto	*	*I"Violino Secundo	*	*I"Violino Primo	*	*I"Tenore	*	*I"Canto	*	*I"Clarino Socundo	*I"Clarino Primo
*I'bc	*	*I'vl 2	*	*I'vl 1	*	*I'T	*	*I'S	*	*I'clno 2 in D	*I'clno 1 in D
*clefF4	*	*clefG2	*	*clefG2	*	*clefC4	*	*clefC1	*	*clefG2	*clefG2
*	*	*	*	*	*	*	*	*	*	*ITrd-1c-2	*ITrd-1c-2
*k[]	*	*k[]	*	*k[]	*	*k[]	*	*k[]	*	*k[]	*k[]
*D:	*	*D:	*	*D:	*	*D:	*	*D:	*	*D:	*D:
*M4/4	*	*M4/4	*	*M4/4	*	*M4/4	*	*M4/4	*	*M4/4	*M4/4
*met(c)	*	*met(c)	*	*met(c)	*	*met(c)	*	*met(c)	*	*met(c)	*met(c)
=1	=1	=1	=1	=1	=1	=1	=1	=1	=1	=1	=1
!LO:TX:rj:a:t=agnus	!	!	!	!	!	!	!	!	!	!	!
!LO:TX:a:t=Solo	!	!LO:TX:rj:b:t=Agnus	!	!	!	!	!	!LO:TX:a:t=Solo	!	!LO:TX:a:t=Tacet	!
!LO:TX:b:t=Adagio	!	!LO:TX:rj:a:t=adagio	!	!LO:TX:rj:a:t=andante	!	!LO:TX:rj:a:t=adagio	!	!LO:TX:a:t=Adagio	!	!LO:TX:a:t=Solo	!LO:TX:a:t=Tacet
8D\L	.	8dd\L	.	8dd\L	.	00r	.	00r	.	1ryy	1ryy
8D\	.	[8ff\J	.	8ff\J	.	.	.	.	.	.	.
8G\	.	16ff\LL]	.	(16ff\LL	.	.	.	.	.	.	.
.	.	16dd\	.	16dd\)	.	.	.	.	.	.	.
8A\J	.	16ee\	.	(16ee\	.	.	.	.	.	.	.
.	.	16cc#X\JJ	.	16cc#X\JJ)	.	.	.	.	.	.	.
8D\L	.	8dd\L	.	8dd\L	.	.	.	.	.	.	.
8D\	.	[8ff\J	.	8ff\J	.	.	.	.	.	.	.
8G\	.	16ff\LL]	.	(16ff\LL	.	.	.	.	.	.	.
.	.	16dd\	.	16dd\)	.	.	.	.	.	.	.
8A\J	.	16ee\	.	(16ee\	.	.	.	.	.	.	.
.	.	16cc#X\JJ	.	16cc#X\JJ)	.	.	.	.	.	.	.
=2	=2	=2	=2	=2	=2	=2	=2	=2	=2	=2	=2
!	!	!LO:TX:a:t=P:problem=mixed beam	!	!LO:TX:t=P:problem=mixed beam	!	!	!	!	!	!	!
8d\L	.	8dd\L	.	8dd\L	.	.	.	.	.	1ryy	1ryy
16D\L	.	16d/L	.	16d/L	.	.	.	.	.	.	.
16E\JJ	.	16e/JJ	.	16e/JJ	.	.	.	.	.	.	.
8F\L	.	8f/L	.	8f/L	.	.	.	.	.	.	.
8G#X\J	.	8g#X/J	.	8g#X/J	.	.	.	.	.	.	.
!LO:TX:t=P:problem=mixed beam	!	!	!	!	!	!	!	!	!	!	!
8A\L	.	8a/L	.	8a/L	.	.	.	.	.	.	.
8AA/	.	8A/J	.	8A/J	.	.	.	.	.	.	.
8AA/	.	8r	.	8r	.	.	.	.	.	.	.
8D/J	.	8aa\	.	8aa\	.	.	.	.	.	.	.
=3	=3	=3	=3	=3	=3	=3	=3	=3	=3	=3	=3
8G\L	.	(16bb-X\LL	.	(16bb-X\LL	.	.	.	.	.	1ryy	1ryy
.	.	16gg\)	.	16gg\)	.	.	.	.	.	.	.
8D\	.	(16aa\	.	(16aa\	.	.	.	.	.	.	.
.	.	16ff#X\JJ)	.	16ff#X\JJ)	.	.	.	.	.	.	.
8D\	.	16dd\LL	.	16dd\LL	.	.	.	.	.	.	.
.	.	16cccn\	.	16cccn\	.	.	.	.	.	.	.
8D\J	.	16bb-X\	.	16bb-X\	.	.	.	.	.	.	.
.	.	16aa\JJ	.	16aa\JJ	.	.	.	.	.	.	.
!LO:TX:t=P:problem=mixed beam	!	!	!	!	!	!	!	!	!	!	!
8G\L	.	16bb-\LL	.	16bb-\LL	.	.	.	.	.	.	.
.	.	16aa\J	.	16aa\J	.	.	.	.	.	.	.
16GG/L	.	8gg\J	.	8gg\J	.	.	.	.	.	.	.
16AA/JJ	.	.	.	.	.	.	.	.	.	.	.
8BB-X/L	.	8r	.	8r	.	.	.	.	.	.	.
8C/J	.	8gg\	.	8gg\	.	.	.	.	.	.	.
=4	=4	=4	=4	=4	=4	=4	=4	=4	=4	=4	=4
8F\L	.	(16aa\LL	.	16aa\LL	.	.	.	.	.	1ryy	1ryy
.	.	16ff\)	.	16ff\	.	.	.	.	.	.	.
8C\	.	(16gg\	.	16gg\	.	.	.	.	.	.	.
.	.	16ee\JJ)	.	16ee\JJ	.	.	.	.	.	.	.
8C\	.	16cc\LL	.	16cc\LL	.	.	.	.	.	.	.
.	.	16bb-X\	.	16bb-X\	.	.	.	.	.	.	.
8C\J	.	16aa\	.	16aa\	.	.	.	.	.	.	.
.	.	16gg\JJ	.	16gg\JJ	.	.	.	.	.	.	.
8F\L	.	16aa\LL	.	16aa\LL	.	.	.	.	.	.	.
.	.	16gg\J	.	16gg\J	.	.	.	.	.	.	.
16F\L	.	8ff\J	.	8ff\J	.	.	.	.	.	.	.
16G\JJ	.	.	.	.	.	.	.	.	.	.	.
8A\L	.	8r	.	8r	.	.	.	.	.	.	.
8D\J	.	8ff\	.	8ff\	.	.	.	.	.	.	.
=5	=5	=5	=5	=5	=5	=5	=5	=5	=5	=5	=5
8G\L	.	(16ff\LL	.	(16ff\LL	.	00r	.	0r	.	1ryy	1ryy
.	.	16ee\)	.	16ee\)	.	.	.	.	.	.	.
8G\	.	(16gg\	.	(16gg\	.	.	.	.	.	.	.
.	.	16ff\JJ)	.	16ff\JJ)	.	.	.	.	.	.	.
8G\	.	16bb-X\LL	.	16bb-X\LL	.	.	.	.	.	.	.
.	.	16gg\	.	16gg\	.	.	.	.	.	.	.
8G\J	.	16ee\	.	16ee\	.	.	.	.	.	.	.
.	.	16dd\JJ	.	16dd\JJ	.	.	.	.	.	.	.
!	!	!	!	!LO:LB:g=original	!	!	!	!	!	!	!
!LO:TX:t=P:problem=mixed beam	!	!LO:TX:a:t=P:problem=mixed beam	!	!LO:TX:t=P:problem=mixed beam	!	!	!	!	!	!	!
16A\LL	.	16cc#X\LL	.	16cc#X\LL	.	.	.	.	.	.	.
16AA/	.	16A/	.	16A/JJ	.	.	.	.	.	.	.
16A\	.	16a/	.	16a/LL	.	.	.	.	.	.	.
16G#X\JJ	.	16g#X/JJ	.	16g#X/JJ	.	.	.	.	.	.	.
16A\LL	.	16a/LL	.	16a`/LL	.	.	.	.	.	.	.
16E\	.	16e/	.	16e`/	.	.	.	.	.	.	.
16C#X\	.	16c#X/	.	16c#X`/	.	.	.	.	.	.	.
16AA\JJ	.	16A/JJ	.	16A`/JJ	.	.	.	.	.	.	.
!	!	!LO:LB:g=original	!	!	!	!	!	!	!	!	!
=6	=6	=6	=6	=6	=6	=6	=6	=6	=6	=6	=6
!	!	!LO:TX:a:t=P:problem=mixed beam	!	!LO:TX:t=P:problem=mixed beam	!	!	!	!	!	!	!
16r	.	16ee\LL	.	16gg\LL	.	.	.	.	.	1ryy	1ryy
!LO:TX:t=P:problem=mixed beam	!	!	!	!	!	!	!	!	!	!	!
16AA/LL	.	16A/JJ	.	16A/	.	.	.	.	.	.	.
16A\	.	16a/LL	.	16a/	.	.	.	.	.	.	.
16G#X\JJ	.	16g#X/JJ	.	16g#X/JJ	.	.	.	.	.	.	.
16A\LL	.	16a/LL	.	16a/LL	.	.	.	.	.	.	.
16E\	.	16e/	.	16e/	.	.	.	.	.	.	.
!	!	!LO:SIC:s=:v:16c#	!	!LO:SIC:s=:v:16c#	!	!	!	!	!	!	!
16C#X\	.	16c/	.	16c/	.	.	.	.	.	.	.
16AA\JJ	.	16A/JJ	.	16A/JJ	.	.	.	.	.	.	.
!LO:LB:g=original	!	!	!	!	!	!	!	!	!	!	!
!	!	!LO:TX:a:t=P:problem=mixed beam	!	!LO:TX:t=P:problem=mixed beam	!	!	!	!	!	!	!
16r	.	16dd\LL	.	16ff\LL	.	.	.	.	.	.	.
16D\LL	.	16d/JJ	.	16d/	.	.	.	.	.	.	.
16d\	.	16dd\LL	.	16dd\	.	.	.	.	.	.	.
16c#X\JJ	.	16cc#X\JJ	.	16cc#X\JJ	.	.	.	.	.	.	.
8d\L	.	16dd\LL	.	16dd\LL	.	.	.	.	.	.	.
.	.	16ff\	.	16ff\	.	.	.	.	.	.	.
8G#\J	.	16ee\	.	16ee\	.	.	.	.	.	.	.
.	.	16dd\JJ	.	16dd\JJ	.	.	.	.	.	.	.
=7	=7	=7	=7	=7	=7	=7	=7	=7	=7	=7	=7
4A\	.	16cc#X\LL	.	(16cc#X\LL	.	.	.	1r	.	1ryy	1ryy
.	.	16a\	.	16a\)	.	.	.	.	.	.	.
.	.	16gg\	.	(16gg\	.	.	.	.	.	.	.
.	.	16ee\JJ	.	16ee\JJ)	.	.	.	.	.	.	.
!LO:TX:t=P:problem=mixed beam	!	!	!	!	!	!	!	!	!	!	!
8A\L	.	16ff\LL	.	(16ff\LL	.	.	.	.	.	.	.
.	.	16ee\	.	16ee\)	.	.	.	.	.	.	.
8AA/J	.	16dd\	.	(16dd\	.	.	.	.	.	.	.
.	.	16cc#X\JJ	.	16cc#X\JJ)	.	.	.	.	.	.	.
8D\L	.	8dd\L	.	8dd/L	.	.	.	.	.	.	.
8D\J	.	16a\L	.	16a/L	.	.	.	.	.	.	.
.	.	16f\JJ	.	16f/JJ	.	.	.	.	.	.	.
4D;;\	.	4d;/	.	4d;/	.	.	.	.	.	.	.
=8	=8	=8	=8	=8	=8	=8	=8	=8	=8	=8	=8
!	!	!	!LO:DY:a:rj	!	!LO:DY:a	!	!	!	!	!	!
8D\L	.	8dd\L	p	8ff\L	p	.	.	8dd\	Ag-	1ryy	1ryy
8D\	.	8dd\	.	8ff\	.	.	.	8ff\	-nus	.	.
8G\	.	8ff\	.	8aa\	.	.	.	(16ff\LL	Ag-	.	.
.	.	.	.	.	.	.	.	16dd\JJ)	.	.	.
8A\J	.	8ee\J	.	8gg\J	.	.	.	(16ee\LL	-nus	.	.
.	.	.	.	.	.	.	.	16cc#X\JJ)	.	.	.
8D\L	.	8dd\L	.	8ff\L	.	.	.	(8dd\L	De-	.	.
8D\	.	8dd\	.	8ff\	.	.	.	8ff\J)	.	.	.
8G\	.	8ff\	.	8aa\	.	.	.	(16ff\LL	-i	.	.
.	.	.	.	.	.	.	.	16dd\JJ)	.	.	.
8A\J	.	8ee\J	.	8gg\J	.	.	.	(16ee\LL	qui	.	.
.	.	.	.	.	.	.	.	16cc#X\JJ)	.	.	.
=9	=9	=9	=9	=9	=9	=9	=9	=9	=9	=9	=9
!	!	!LO:TX:a:t=P:problem=mixed beam	!	!LO:TX:t=P:problem=mixed beam	!	!	!	!	!	!	!
8D\L	.	8dd\L	.	8ff\L	.	00r	.	8dd\	tol-	1ryy	1ryy
16D\L	.	16d/L	.	16d/L	.	.	.	16d/	-lis	.	.
16E\JJ	.	16e/JJ	.	16e/JJ	.	.	.	16e/	pe-	.	.
8F\L	.	8f/L	.	8f/L	.	.	.	8f/	-ca-	.	.
8G#X\J	.	8g#X/J	.	8g#X/J	.	.	.	8g#X/	-ta	.	.
!LO:TX:t=P:problem=mixed beam	!	!	!	!	!	!	!	!	!	!	!
8A\L	.	8a/L	.	8a/L	.	.	.	8a\	mun-	.	.
8AA/	.	8A/J	.	8A/J	.	.	.	8a\	-di	.	.
8AA/	.	8r	.	8r	.	.	.	8r	.	.	.
8D/J	.	8f#X/	.	8aa\	.	.	.	16a\	par-	.	.
.	.	.	.	.	.	.	.	16a\	-ce	.	.
=10	=10	=10	=10	=10	=10	=10	=10	=10	=10	=10	=10
8G\L	.	8d/L	.	16bb-X\LL	.	.	.	8b-X\	no-	1ryy	1ryy
.	.	.	.	16gg\	.	.	.	.	.	.	.
!	!	!LO:SIC:s=:v:8f#	!	!	!	!	!	!	!	!	!
8D\	.	8f/	.	16aa\	.	.	.	8a\	-bis	.	.
.	.	.	.	16ff#X\JJ	.	.	.	.	.	.	.
!	!	!LO:SIC:s=:v:8f#	!	!	!	!	!	!	!	!	!
8D\	.	8f/	.	16dd\LL	.	.	.	16a\LL	no-	.	.
.	.	.	.	16ccc\	.	.	.	16cc\JJ	.	.	.
!	!	!LO:SIC:s=:v:8f#	!	!	!	!	!	!	!	!	!
8D\J	.	8f/J	.	16bb-X\	.	.	.	16b-\LL	-bis	.	.
.	.	.	.	16aa\JJ	.	.	.	16a\JJ	.	.	.
!	!	!	!	!LO:LB:g=original	!	!	!	!	!	!	!
!LO:TX:t=P:problem=mixed beam	!	!LO:TX:a:t=P:problem=mixed beam	!	!	!	!	!	!	!	!	!
8G\L	.	8d/L	.	16bb-\LL	.	.	.	16b-X\	Do-	.	.
.	.	.	.	16aa\J	.	.	.	16a\	-mi-	.	.
16GG/L	.	8b-X\	.	8gg\J	.	.	.	8g\	-ne	.	.
16AA/JJ	.	.	.	.	.	.	.	.	.	.	.
!	!	!	!	!	!	!	!	!LO:LB:g=original	!	!	!
8BB-X/L	.	8b-\	.	8r	.	.	.	8r	.	.	.
8C/J	.	8b-\J	.	8gg\	.	.	.	16g\	par-	.	.
.	.	.	.	.	.	.	.	16g\	-ce	.	.
=11	=11	=11	=11	=11	=11	=11	=11	=11	=11	=11	=11
!	!	!LO:TX:a:t=P:problem=mixed beam	!	!	!	!	!	!	!	!	!
8F\L	.	8cc\L	.	16aa\LL	.	.	.	8a\	no-	1ryy	1ryy
.	.	.	.	16ff\	.	.	.	.	.	.	.
8C\	.	8e/	.	16gg\	.	.	.	8g\	-bis	.	.
.	.	.	.	16ee\JJ	.	.	.	.	.	.	.
8C\	.	8e/	.	16cc\LL	.	.	.	(16g\LL	no-	.	.
.	.	.	.	16bb-X\	.	.	.	16b-X\JJ)	.	.	.
8C\J	.	8e/J	.	16aa\	.	.	.	(16a\LL	-bis	.	.
.	.	.	.	16gg\JJ	.	.	.	16g\JJ)	.	.	.
*tremolo	*	*	*	*	*	*	*	*	*	*	*
*2\right	*	*	*	*	*	*	*	*	*	*	*
8F\L	.	8c/L	.	16aa\LL	.	.	.	16a\	Do-	.	.
.	.	.	.	16gg\J	.	.	.	16g\	-mi-	.	.
8F\	.	8a/	.	8ff\J	.	.	.	8f/	-ne	.	.
8F\	.	8a/	.	8cc\L	.	.	.	4r	.	.	.
8F\J	.	8a/J	.	8cc\J	.	.	.	.	.	.	.
=12	=12	=12	=12	=12	=12	=12	=12	=12	=12	=12	=12
*	*	*tremolo	*	*2\right	*	*	*	*	*	*	*
*	*	*	*	*tremolo	*	*	*	*	*	*	*
!	!	!	!	!	!	!	!	!LO:TX:t=P:problem=mixed beam	!	!	!
8F\L	.	8a/L	.	8cc\L	.	.	.	8ff\L	Par-	1ryy	1ryy
8F\	.	8a/	.	8cc\	.	.	.	16f/L	.	.	.
.	.	.	.	.	.	.	.	16g/JJ	.	.	.
8F\	.	8a/	.	8cc\	.	.	.	16a\LL	.	.	.
.	.	.	.	.	.	.	.	16b-X\JJ	.	.	.
8F\J	.	8a/J	.	8cc\J	.	.	.	16cc\LL	-ce	.	.
.	.	.	.	.	.	.	.	16dd\JJ	.	.	.
8F\L	.	8a/L	.	8cc\L	.	.	.	8ee-X\	no-	.	.
8F\	.	8a/	.	8cc\	.	.	.	8ee-\	-bis	.	.
8F\	.	8a/	.	8cc\	.	.	.	8ee-\	Do-	.	.
8F\J	.	8a/J	.	8cc\J	.	.	.	8ee-\	-mi-	.	.
*	*	*Xtremolo	*	*	*	*	*	*	*	*	*
!	!	!LO:LB:g=original	!	!	!	!	!	!	!	!	!
=13	=13	=13	=13	=13	=13	=13	=13	=13	=13	=13	=13
!LO:TX:t=P:problem=mixed beam	!	!	!	!	!	!	!	!	!	!	!
8BB-X/L	.	8b-X\L	.	8dd\L	.	00r	.	8dd\	-ne	1ryy	1ryy
8G\	.	8bn\	.	8dd\	.	.	.	16g\LL	par-	.	.
.	.	.	.	.	.	.	.	16a\JJ	.	.	.
8G\	.	8b\	.	8dd\	.	.	.	16bn\LL	.	.	.
.	.	.	.	.	.	.	.	16cc\JJ	.	.	.
8G\J	.	8b\J	.	8dd\J	.	.	.	16dd\LL	-ce	.	.
.	.	.	.	.	.	.	.	16een\JJ	.	.	.
8G\L	.	8b\L	.	8dd\L	.	.	.	8ff\	no-	.	.
8G\	.	8b\	.	8dd\	.	.	.	8ff\	-bis	.	.
8G\	.	8b\	.	8dd\	.	.	.	8ff\	do-	.	.
8G\J	.	8b\J	.	8dd\J	.	.	.	8ff\	-mi-	.	.
*Xtremolo	*	*	*	*Xtremolo	*	*	*	*	*	*	*
!LO:LB:g=original	!	!	!	!	!	!	!	!LO:LB:g=original	!	!	!
=14	=14	=14	=14	=14	=14	=14	=14	=14	=14	=14	=14
!	!	!LO:TX:a:t=P:problem=mixed beam	!	!	!	!	!	!	!	!	!
8C/L	.	8cc\L	.	8ee\L	.	.	.	8ee\	-ne	1ryy	1ryy
8C/	.	8ee\	.	8gg\	.	.	.	16gg\LL	par-	.	.
.	.	.	.	.	.	.	.	16ff\JJ	.	.	.
8C/	.	8ee\	.	8gg\	.	.	.	16ee\LL	.	.	.
.	.	.	.	.	.	.	.	16dd\JJ	.	.	.
8C/J	.	8g/J	.	8b-X\J	.	.	.	16cc\LL	-ce	.	.
.	.	.	.	.	.	.	.	16b-X\JJ	.	.	.
!LO:TX:t=P:problem=mixed beam	!	!LO:TX:a:t=P:problem=mixed beam	!	!LO:TX:t=P:problem=mixed beam	!	!	!	!	!	!	!
8F\L	.	8f/L	.	8a/L	.	.	.	8a\	no-	.	.
!LO:SIC:s=:v:8B-	!	!	!	!	!	!	!	!	!	!	!
8B\	.	8gg\J	.	8bb-X\J	.	.	.	16g/LL	-bis	.	.
.	.	.	.	.	.	.	.	16f/JJ	.	.	.
.	.	8qqgg/	.	8qqaa/	.	.	.	.	.	.	.
8c\	.	4ee\	.	4gg\	.	.	.	8.g/	Do-	.	.
8C/J	.	.	.	.	.	.	.	.	.	.	.
.	.	.	.	.	.	.	.	16g/	-mi-	.	.
=15	=15	=15	=15	=15	=15	=15	=15	=15	=15	=15	=15
!	!LO:DY:a:t=for	!	!LO:DY:a	!LO:TX:t=P:f = f:problem	!LO:DY:a	!	!	!	!	!	!
8F\L	f	8ff\L	f	8ff\L	f	.	.	4f/	-ne	1ryy	1ryy
8F\	.	8aa\J	.	8aa\J	.	.	.	.	.	.	.
8A\	.	(16aa\LL	.	(16aa\LL	.	.	.	4r	.	.	.
.	.	16ff\)	.	16ff\JJ)	.	.	.	.	.	.	.
8c\J	.	(16gg\	.	(16gg\LL	.	.	.	.	.	.	.
.	.	16ee\JJ)	.	16ee\JJ)	.	.	.	.	.	.	.
8F\L	.	8ff\L	.	8ff\L	.	.	.	2r	.	.	.
8F\	.	8aa\J	.	8aa\J	.	.	.	.	.	.	.
8A\	.	(16aa\LL	.	(16aa\LL	.	.	.	.	.	.	.
.	.	16ff\)	.	16ff\)	.	.	.	.	.	.	.
8c\J	.	(16gg\	.	(16gg\	.	.	.	.	.	.	.
.	.	16ee\JJ)	.	16ee\JJ)	.	.	.	.	.	.	.
=16	=16	=16	=16	=16	=16	=16	=16	=16	=16	=16	=16
!	!	!LO:TX:a:t=P:problem=mixed beam	!	!LO:TX:t=P:problem=mixed beam	!	!	!	!	!	!	!
8F\L	.	8ff\L	.	8ff\L	.	.	.	00r	.	1ryy	1ryy
16F\L	.	16f/L	.	16f/L	.	.	.	.	.	.	.
16G\JJ	.	16g/JJ	.	16g/JJ	.	.	.	.	.	.	.
8A\L	.	8a/L	.	8a/L	.	.	.	.	.	.	.
8Bn\J	.	8bn/J	.	8bn/J	.	.	.	.	.	.	.
!LO:TX:t=P:problem=mixed beam	!	!LO:TX:a:t=P:problem=mixed beam	!	!LO:TX:t=P:problem=mixed beam	!	!	!	!	!	!	!
8c\L	.	8cc\L	.	8cc\L	.	.	.	.	.	.	.
8C/	.	8c/J	.	8c/J	.	.	.	.	.	.	.
8E/	.	8r	.	8r	.	.	.	.	.	.	.
8C/J	.	8ee\	.	8gg\	.	.	.	.	.	.	.
!	!	!	!	!LO:LB:g=original	!	!	!	!	!	!	!
=17	=17	=17	=17	=17	=17	=17	=17	=17	=17	=17	=17
!LO:TX:t=P:problem=mixed beam	!	!	!	!	!	!	!	!	!	!	!
8F\L	.	(16ff\LL	.	(16aa\LL	.	00r	.	.	.	1ryy	1ryy
.	.	16dd\J)	.	16ff\)	.	.	.	.	.	.	.
8c\	.	8ee\J	.	(16gg\	.	.	.	.	.	.	.
.	.	.	.	16ee\JJ)	.	.	.	.	.	.	.
8c\	.	16ee\LL	.	(16cc\LL	.	.	.	.	.	.	.
.	.	16gg\	.	16bb-X\)	.	.	.	.	.	.	.
8C/J	.	16ff\	.	(16aa\	.	.	.	.	.	.	.
.	.	16ee\JJ	.	16gg\JJ)	.	.	.	.	.	.	.
!LO:TX:t=P:problem=mixed beam	!	!	!	!	!	!	!	!	!	!	!
8F\L	.	16ff\LL	.	(16aa\LL	.	.	.	.	.	.	.
.	.	16dd\J	.	16ff\J)	.	.	.	.	.	.	.
8c\	.	8ee\J	.	8gg\J	.	.	.	.	.	.	.
8C/	.	8r	.	8r	.	.	.	.	.	.	.
8C/J	.	8ee\	.	8gg\	.	.	.	.	.	.	.
=18	=18	=18	=18	=18	=18	=18	=18	=18	=18	=18	=18
!LO:TX:t=P:problem=mixed beam	!	!	!	!	!	!	!	!	!	!	!
8F\L	.	16ff\LL	.	(16aa\LL	.	.	.	.	.	1ryy	1ryy
.	.	16dd\J	.	16ff\)	.	.	.	.	.	.	.
8c\	.	8ee\J	.	(16gg\	.	.	.	.	.	.	.
.	.	.	.	16ee\JJ)	.	.	.	.	.	.	.
8c\	.	16ee\LL	.	(16cc\LL	.	.	.	.	.	.	.
.	.	16gg\	.	16bb-X\)	.	.	.	.	.	.	.
8C/J	.	16ff\	.	(16aa\	.	.	.	.	.	.	.
.	.	16ee\JJ	.	16gg\JJ)	.	.	.	.	.	.	.
8F\L	.	(16ff\LL	.	16aa\LL	.	.	.	.	.	.	.
.	.	16dd\J)	.	16ff\J	.	.	.	.	.	.	.
16C\L	.	8ee\J	.	8gg\J	.	.	.	.	.	.	.
16D\JJ	.	.	.	.	.	.	.	.	.	.	.
8E\L	.	8r	.	8r	.	.	.	.	.	.	.
8C\J	.	8gg\	.	8gg\	.	.	.	.	.	.	.
=19	=19	=19	=19	=19	=19	=19	=19	=19	=19	=19	=19
8F\L	.	16aa\LL	.	16aa\LL	.	.	.	.	.	1ryy	1ryy
.	.	16gg\	.	16gg\	.	.	.	.	.	.	.
!	!	!LO:SIC:s=:v:16bb-	!	!	!	!	!	!	!	!	!
8F\	.	16bb\	.	16bb-X\	.	.	.	.	.	.	.
.	.	16aa\JJ	.	16aa\JJ	.	.	.	.	.	.	.
8D\	.	16gg\LL	.	16gg\LL	.	.	.	.	.	.	.
.	.	16ff\	.	16ff\	.	.	.	.	.	.	.
8D\J	.	16ee\	.	16ee\	.	.	.	.	.	.	.
.	.	16dd\JJ	.	16dd\JJ	.	.	.	.	.	.	.
!	!	!LO:LB:g=original	!	!	!	!	!	!	!	!	!
!LO:TX:t=P:problem=mixed beam	!	!LO:TX:a:t=P:problem=mixed beam	!	!LO:TX:t=P:problem=mixed beam	!	!	!	!	!	!	!
16C/LL	.	16cc\LL	.	16cc\LL	.	.	.	.	.	.	.
16C/	.	16c/JJ	.	16c/JJ	.	.	.	.	.	.	.
16c\	.	16cc\LL	.	16cc\LL	.	.	.	.	.	.	.
16Bn\JJ	.	16bn\JJ	.	16bn\JJ	.	.	.	.	.	.	.
16c\LL	.	16cc\LL	.	16cc\LL	.	.	.	.	.	.	.
16G\	.	16g\JJ	.	16g\JJ	.	.	.	.	.	.	.
16E\	.	16e/LL	.	16e/LL	.	.	.	.	.	.	.
16C\JJ	.	16c/JJ	.	16c/JJ	.	.	.	.	.	.	.
=20	=20	=20	=20	=20	=20	=20	=20	=20	=20	=20	=20
!	!	!LO:TX:a:t=P:problem=mixed beam	!	!LO:TX:t=P:problem=mixed beam	!	!	!	!	!	!	!
16r	.	16gg\LL	.	16bb-X\LL	.	.	.	00r	.	1ryy	1ryy
!LO:TX:t=P:problem=mixed beam	!	!	!	!	!	!	!	!	!	!	!
16C/LL	.	16c/JJ	.	16c/JJ	.	.	.	.	.	.	.
16c\	.	16cc\LL	.	16cc\LL	.	.	.	.	.	.	.
16Bn\JJ	.	16bn\JJ	.	16bn\JJ	.	.	.	.	.	.	.
!LO:LB:g=original	!	!	!	!	!	!	!	!	!	!	!
16c\LL	.	16cc\LL	.	16cc\LL	.	.	.	.	.	.	.
16G\	.	16g\JJ	.	16g\JJ	.	.	.	.	.	.	.
16E\	.	16e/LL	.	16e/LL	.	.	.	.	.	.	.
16C\JJ	.	16c/JJ	.	16c/JJ	.	.	.	.	.	.	.
!	!	!LO:TX:a:t=P:problem=mixed beam	!	!LO:TX:t=P:problem=mixed beam	!	!	!	!	!	!	!
16r	.	16ff\LL	.	16aa\LL	.	.	.	.	.	.	.
!LO:TX:t=P:problem=mixed beam	!	!	!	!	!	!	!	!	!	!	!
16FF/LL	.	16f/	.	16f/JJ	.	.	.	.	.	.	.
16F\	.	16ff\	.	16ff\LL	.	.	.	.	.	.	.
16E\JJ	.	16ee\JJ	.	16ee\JJ	.	.	.	.	.	.	.
8F\L	.	16ff\LL	.	16ff\LL	.	.	.	.	.	.	.
.	.	16aa\	.	16aa\	.	.	.	.	.	.	.
8B-X\J	.	16gg\	.	16gg\	.	.	.	.	.	.	.
.	.	16ff\JJ	.	16ff\JJ	.	.	.	.	.	.	.
=21	=21	=21	=21	=21	=21	=21	=21	=21	=21	=21	=21
!LO:TX:t=P:problem=mixed beam	!	!	!	!	!	!	!	!	!	!	!
8c\L	.	16ee\LL	.	16ee\LL	.	1r	.	.	.	1ryy	1ryy
.	.	16cc\	.	16cc\	.	.	.	.	.	.	.
8F\	.	16ee\	.	16ee\	.	.	.	.	.	.	.
!	!	!LO:SIC:s=:v:16bb-	!	!	!	!	!	!	!	!	!
.	.	16bb\JJ	.	16bb-X\JJ	.	.	.	.	.	.	.
8c\	.	16aa\LL	.	16aa\LL	.	.	.	.	.	.	.
.	.	16gg\	.	16gg\	.	.	.	.	.	.	.
8C/J	.	16ff\	.	16ff\	.	.	.	.	.	.	.
.	.	16ee\JJ	.	16ee\JJ	.	.	.	.	.	.	.
!	!	!	!	!LO:LB:g=original	!	!	!	!	!	!	!
8F\L	.	8ff\L	.	8ff\L	.	.	.	.	.	.	.
8F\J	.	16cc\L	.	16cc\L	.	.	.	.	.	.	.
.	.	16a\JJ	.	16a\JJ	.	.	.	.	.	.	.
4F\	.	4f/	.	4f/	.	.	.	.	.	.	.
=22	=22	=22	=22	=22	=22	=22	=22	=22	=22	=22	=22
!LO:TX:t=P:problem=mixed beam	!	!	!LO:DY:a:t=P&colon;	!	!LO:DY:a:t=pia	!	!	!	!	!	!
8F\L	.	8f/	p	8f/	p	8f\	Ag-	.	.	1ryy	1ryy
8F\	.	4a/	.	4cc\	.	8a\	-nus	.	.	.	.
8AA/	.	.	.	.	.	16a\LL	Ag-	.	.	.	.
.	.	.	.	.	.	16f\JJ	.	.	.	.	.
8C/J	.	8g/	.	8b-X\	.	16g\LL	-nus	.	.	.	.
.	.	.	.	.	.	16e\JJ	.	.	.	.	.
!LO:TX:t=P:problem=mixed beam	!	!	!	!	!	!	!	!	!	!	!
8FF/L	.	8f/	.	8a/	.	8f\L	De-	.	.	.	.
8F\	.	4cc\	.	4aa\	.	8a\J	.	.	.	.	.
8AA/	.	.	.	.	.	16a\LL	-i	.	.	.	.
.	.	.	.	.	.	16f\JJ	.	.	.	.	.
!	!	!LO:SIC:s=:v:8b-	!	!	!	!	!	!	!	!	!
8C/J	.	8b\	.	8gg\	.	16g\LL	qui	.	.	.	.
.	.	.	.	.	.	16e\JJ	.	.	.	.	.
=23	=23	=23	=23	=23	=23	=23	=23	=23	=23	=23	=23
!	!	!	!	!LO:TX:t=P:problem=mixed beam	!	!	!	!	!	!	!
8F\L	.	8a/L	.	8ff\L	.	8f\	tol-	.	.	1ryy	1ryy
16F\L	.	16f/L	.	16f/L	.	16F/	-lis	.	.	.	.
16G\JJ	.	16g/JJ	.	16g/JJ	.	16G/	pec-	.	.	.	.
8A\L	.	8a/L	.	8a/L	.	8A\	-ca-	.	.	.	.
!LO:SIC:s=:v:8B t=8B-?	!	!LO:SIC:s:o=:v:8b-?	!	!LO:SIC:s=:v:8b t=8b-?	!	!LO:SIC:s:o=:v:8b-?	!	!	!	!	!
8B-X\J	.	8bn/J	.	8b-X/J	.	8Bn\	-ta	.	.	.	.
!LO:TX:t=P:problem=mixed beam	!	!	!	!	!	!	!	!	!	!	!
8c\L	.	8cc\L	.	8cc\L	.	8c\	mun-	.	.	.	.
8C/	.	8ee\	.	8gg\	.	8c\	-di	.	.	.	.
8C/	.	8ee\	.	8gg\	.	8r	.	.	.	.	.
8C/J	.	8ee\J	.	8gg\J	.	8g\	ex-	.	.	.	.
=24	=24	=24	=24	=24	=24	=24	=24	=24	=24	=24	=24
*tremolo	*	*	*	*	*	*	*	*	*	*	*
8C/L	.	8ff\L	.	(16aa\LL	.	16a\LL	-au-	0r	.	1ryy	1ryy
.	.	.	.	16ff\)	.	16f\JJ	.	.	.	.	.
8C/	.	8ee\J	.	(16gg\	.	16g\LL	-di	.	.	.	.
.	.	.	.	16ee\JJ)	.	16e\JJ	.	.	.	.	.
8C/	.	16ee\LL	.	16cc\LL	.	16c\LL	nos	.	.	.	.
.	.	16gg\	.	(16bb-X\	.	16B-X\	.	.	.	.	.
8C/J	.	16ff\	.	16aa\	.	16A\	.	.	.	.	.
.	.	16ee\JJ	.	16gg\JJ)	.	16G\JJ	.	.	.	.	.
!	!	!	!	!	!	!LO:LB:g=original	!	!	!	!	!
8C/L	.	16ee\LL	.	(16aa\LL	.	16A/	Do-	.	.	.	.
.	.	16dd\J	.	16ff\J)	.	16F/	-mi-	.	.	.	.
8C/	.	8ee\J	.	8gg\J	.	8G/	-ne	.	.	.	.
8C/	.	8ee\L	.	8gg\L	.	8r	.	.	.	.	.
8C/J	.	8ee\J	.	8gg\J	.	8g\	ex-	.	.	.	.
=25	=25	=25	=25	=25	=25	=25	=25	=25	=25	=25	=25
8C/L	.	8ff\L	.	16aa\LL	.	16a\LL	-au-	.	.	1ryy	1ryy
.	.	.	.	16ff\	.	16f\JJ	.	.	.	.	.
8C/	.	8ee\J	.	16gg\	.	16g\LL	-di	.	.	.	.
.	.	.	.	16ee\JJ	.	16e\JJ	.	.	.	.	.
8C/	.	16ee\LL	.	16cc\LL	.	16c\LL	nos	.	.	.	.
.	.	16gg\	.	16bb-X\	.	16B-X\	.	.	.	.	.
8C/J	.	16ff\	.	16aa\	.	16A\	.	.	.	.	.
.	.	16ee\JJ	.	16gg\JJ	.	16G\JJ	.	.	.	.	.
!	!	!LO:LB:g=original	!	!	!	!	!	!	!	!	!
8C/L	.	16ff\LL	.	16aa\LL	.	16A/	Do-	.	.	.	.
.	.	16dd\J	.	16ff\J	.	16F/	-mi-	.	.	.	.
8C/	.	8ee\J	.	8gg\J	.	8G/	-ne	.	.	.	.
8C/	.	8ee\L	.	8gg\L	.	4r	.	.	.	.	.
8C/J	.	8ee\J	.	8gg\J	.	.	.	.	.	.	.
=26	=26	=26	=26	=26	=26	=26	=26	=26	=26	=26	=26
*	*	*tremolo	*	*tremolo	*	*	*	*	*	*	*
16F\LL	.	16a/LL	.	16ee-X\LL	.	4r	.	4f/	ex-	1ryy	1ryy
16F\	.	16a/	.	16ee-X\	.	.	.	.	.	.	.
16F\	.	16a/	.	16ee-X\	.	.	.	.	.	.	.
16F\JJ	.	16a/JJ	.	16ee-X\JJ	.	.	.	.	.	.	.
16F\LL	.	16cc\LL	.	16ee-\LL	.	4c\	ex-	4ee-X\	.	.	.
16F\	.	16cc\	.	16ee-\	.	.	.	.	.	.	.
16F\	.	16cc\	.	16ee-\	.	.	.	.	.	.	.
16F\JJ	.	16cc\JJ	.	16ee-\JJ	.	.	.	.	.	.	.
16BB-X/LL	.	16cc\LL	.	16ee-\LL	.	8c\	-au-	8ee-\	-au-	.	.
16BB-X/	.	16cc\	.	16ee-\	.	.	.	.	.	.	.
16BB-X/	.	16cc\	.	16ee-\	.	16B-X\LL	-di	16dd\LL	-di	.	.
16BB-X/JJ	.	16cc\JJ	.	16ee-\JJ	.	16A\JJ	.	16cc\JJ	.	.	.
16BB-/LL	.	16b-X\LL	.	16dd\LL	.	4B-\	nos	4dd\	nos	.	.
16BB-/	.	16b-X\	.	16dd\	.	.	.	.	.	.	.
16BB-/	.	16b-X\	.	16dd\	.	.	.	.	.	.	.
16BB-/JJ	.	16b-X\JJ	.	16dd\JJ	.	.	.	.	.	.	.
=27	=27	=27	=27	=27	=27	=27	=27	=27	=27	=27	=27
16G\LL	.	16bn\LL	.	16ff\LL	.	4G/	Do-	4r	.	1ryy	1ryy
16G\	.	16bn\	.	16ff\	.	.	.	.	.	.	.
16G\	.	16bn\	.	16ff\	.	.	.	.	.	.	.
16G\JJ	.	16bn\JJ	.	16ff\JJ	.	.	.	.	.	.	.
16G\LL	.	16dd\LL	.	16ff\LL	.	4.f\	.	[4dd\	Do-	.	.
16G\	.	16dd\	.	16ff\	.	.	.	.	.	.	.
16G\	.	16dd\	.	16ff\	.	.	.	.	.	.	.
16G\JJ	.	16dd\JJ	.	16ff\JJ	.	.	.	.	.	.	.
16C/LL	.	16dd\LL	.	16ff\LL	.	.	.	8dd\]	.	.	.
16C/	.	16dd\	.	16ff\	.	.	.	.	.	.	.
16C/	.	16dd\	.	16ff\	.	16e\LL	-mi-	16cc\LL	-mi-	.	.
16C/JJ	.	16dd\JJ	.	16ff\JJ	.	16d\JJ	.	16bn\JJ	.	.	.
16C/LL	.	16cc\LL	.	16een\LL	.	4e\	-ne	4cc\	-ne	.	.
16C/	.	16cc\	.	16een\	.	.	.	.	.	.	.
16C/	.	16cc\	.	16een\	.	.	.	.	.	.	.
16C/JJ	.	16cc\JJ	.	16een\JJ	.	.	.	.	.	.	.
!LO:LB:g=original	!	!	!	!LO:LB:g=original	!	!	!	!	!	!	!
=28	=28	=28	=28	=28	=28	=28	=28	=28	=28	=28	=28
16A\LL	.	16cc#X\LL	.	16gg\LL	.	4r	.	4a\	ex-	1ryy	1ryy
16A\	.	16cc#X\	.	16gg\	.	.	.	.	.	.	.
16A\	.	16cc#X\	.	16gg\	.	.	.	.	.	.	.
16A\JJ	.	16cc#X\JJ	.	16gg\JJ	.	.	.	.	.	.	.
16A\LL	.	16ee\LL	.	16gg\LL	.	4e\	ex-	4gg\	.	.	.
16A\	.	16ee\	.	16gg\	.	.	.	.	.	.	.
16A\	.	16ee\	.	16gg\	.	.	.	.	.	.	.
16A\JJ	.	16ee\JJ	.	16gg\JJ	.	.	.	.	.	.	.
16D\LL	.	16ee\LL	.	16gg\LL	.	8e\	-au-	8gg\	-au-	.	.
16D\	.	16ee\	.	16gg\	.	.	.	.	.	.	.
16D\	.	16ee\	.	16gg\	.	16d\LL	-di	16ff\LL	-di	.	.
16D\JJ	.	16ee\JJ	.	16gg\JJ	.	16c#X\JJ	.	16een\JJ	.	.	.
16D\LL	.	16dd\LL	.	16ff\LL	.	4d\	nos	4ff\	nos	.	.
16D\	.	16dd\	.	16ff\	.	.	.	.	.	.	.
16D\	.	16dd\	.	16ff\	.	.	.	.	.	.	.
16D\JJ	.	16dd\JJ	.	16ff\JJ	.	.	.	.	.	.	.
*Xtremolo	*	*Xtremolo	*	*Xtremolo	*	*	*	*	*	*	*
!	!	!	!	!	!	!LO:LB:g=original	!	!LO:LB:g=original	!	!	!
=29	=29	=29	=29	=29	=29	=29	=29	=29	=29	=29	=29
8C#X/L	.	8ff\	.	8aa\	.	8f\	Do-	8aa\	Do-	1ryy	1ryy
8C#/	.	4ee\	.	4gg\	.	4e\	.	4gg\	.	.	.
8C#/	.	.	.	.	.	.	.	.	.	.	.
8D/J	.	8dd\	.	8ff\	.	8d\	-mi-	8ff\	-mi-	.	.
!LO:TX:t=P:problem=mixed beam	!	!LO:TX:a:t=P:problem=mixed beam	!	!LO:TX:t=P:problem=mixed beam	!	!	!	!	!	!	!
16A\LL	.	16cc#X\LL	.	16ee\LL	.	4c#X\	-ne	4ee\	-ne	.	.
16AA/	.	16A/JJ	.	16A/JJ	.	.	.	.	.	.	.
16A\	.	16a/LL	.	16a/LL	.	.	.	.	.	.	.
16G#X\JJ	.	16g#X/JJ	.	16g#X/JJ	.	.	.	.	.	.	.
16A\LL	.	16a/LL	.	16a/LL	.	4r	.	4r	.	.	.
16E\	.	16e/	.	16e/	.	.	.	.	.	.	.
16C#X\	.	16c#X/	.	16c#X/	.	.	.	.	.	.	.
16AA\JJ	.	16A/JJ	.	16A/JJ	.	.	.	.	.	.	.
=30	=30	=30	=30	=30	=30	=30	=30	=30	=30	=30	=30
*	*	*	*	*	*	*2\right	*	*2\right	*	*	*
!	!	!LO:TX:a:t=P:problem=mixed beam	!	!LO:TX:t=P:problem=mixed beam	!	!	!	!	!	!	!
16r	.	16ee\LL	.	16gg\LL	.	2e\	ex-	2gg\	ex-	1ryy	1ryy
!LO:TX:t=P:problem=mixed beam	!	!	!	!	!	!	!	!	!	!	!
16AA/LL	.	16A/JJ	.	16A/JJ	.	.	.	.	.	.	.
16A\	.	16a/LL	.	16a/LL	.	.	.	.	.	.	.
16G#X\JJ	.	16g#X/JJ	.	16g#X/JJ	.	.	.	.	.	.	.
16A\LL	.	16a/LL	.	16a/LL	.	.	.	.	.	.	.
16E\	.	16e/	.	16e/	.	.	.	.	.	.	.
16C#X\	.	16c#X/	.	16c/	.	.	.	.	.	.	.
16AA\JJ	.	16A/JJ	.	16A/JJ	.	.	.	.	.	.	.
!	!	!LO:TX:a:t=P:problem=mixed beam	!	!LO:TX:t=P:problem=mixed beam	!	!	!	!	!	!	!
16r	.	16dd\LL	.	16ff\LL	.	4d\	-au-	4ff\	-au-	.	.
16D\LL	.	16d/JJ	.	16d/	.	.	.	.	.	.	.
16d\	.	16dd\LL	.	16dd\	.	.	.	.	.	.	.
16c#X\JJ	.	16cc#X\JJ	.	16cc#X\JJ	.	.	.	.	.	.	.
!LO:TX:t=P:problem=mixed beam	!	!	!	!	!	!	!	!	!	!	!
8d\L	.	16dd\LL	.	16dd\LL	.	8d\	-di	8ff\	-di	.	.
.	.	16a\	.	16ff\	.	.	.	.	.	.	.
8D/J	.	16g#\	.	16ee\	.	8d\	nos	8ff\	nos	.	.
!	!	!	!	!LO:TX:t=P:problem=wykreślone 3 takty	!	!	!	!	!	!	!
.	.	16f\JJ	.	16dd\JJ	.	.	.	.	.	.	.
=31	=31	=31	=31	=31	=31	=31	=31	=31	=31	=31	=31
!LO:TX:t=P:problem=mixed beam	!	!	!	!	!	!	!	!	!	!	!
8G\L	.	8g/	.	8ee\	.	8B-X\	Do-	8ee\	Do-	1ryy	1ryy
8G\	.	4f/	.	4dd\	.	4A\	.	4dd\	.	.	.
8A\	.	.	.	.	.	.	.	.	.	.	.
8AA/J	.	8e/	.	8cc#X\	.	8e\	-mi-	8cc#X\	-mi-	.	.
!	!	!LO:LB:g=original	!	!	!	!	!	!	!	!	!
!LO:TX:t=P:problem=mixed beam	!	!	!	!LO:TX:t=P:problem=mixed beam	!	!	!	!	!	!	!
16D/LL	.	16f/LL	.	16dd\LL	.	4f\	-ne	4dd\	-ne	.	.
16AA/	.	16A/	.	16A/	.	.	.	.	.	.	.
16A\	.	16a/	.	16a/	.	.	.	.	.	.	.
16G#X\JJ	.	16g#X/JJ	.	16g#X/JJ	.	.	.	.	.	.	.
16A\LL	.	16a/LL	.	16a/LL	.	4r	.	4r	.	.	.
16E\	.	16e/	.	16e/	.	.	.	.	.	.	.
16C#X\	.	16c#X/	.	16c#X/	.	.	.	.	.	.	.
16AA\JJ	.	16A/JJ	.	16A/JJ	.	.	.	.	.	.	.
=32	=32	=32	=32	=32	=32	=32	=32	=32	=32	=32	=32
!	!	!LO:TX:a:t=P:problem=mixed beam	!	!LO:TX:t=P:problem=mixed beam	!	!	!	!	!	!	!
16r	.	16ee\LL	.	16gg\LL	.	2e\	ex-	2gg\	ex-	1ryy	1ryy
!LO:TX:t=P:problem=mixed beam	!	!	!	!	!	!	!	!	!	!	!
16AA/LL	.	16A/	.	16A/	.	.	.	.	.	.	.
16A\	.	16a/	.	16a/	.	.	.	.	.	.	.
16G#X\JJ	.	16g#X/JJ	.	16g#X/JJ	.	.	.	.	.	.	.
16A\LL	.	16a/LL	.	16a/LL	.	.	.	.	.	.	.
16E\	.	16e/	.	16e/	.	.	.	.	.	.	.
16C#X\	.	16c#X/	.	16c#X/	.	.	.	.	.	.	.
16AA\JJ	.	16A/JJ	.	16A/JJ	.	.	.	.	.	.	.
!	!	!LO:TX:a:t=P:problem=mixed beam	!	!LO:TX:t=P:problem=mixed beam	!	!	!	!	!	!	!
16r	.	16dd\LL	.	16ff\LL	.	4d\	-au-	4ff\	-au-	.	.
16D\LL	.	16d/	.	16d/	.	.	.	.	.	.	.
16d\	.	16dd\	.	16dd\	.	.	.	.	.	.	.
16c#X\JJ	.	16cc#X\JJ	.	16cc#X\JJ	.	.	.	.	.	.	.
!LO:TX:t=P:problem=niepełna miara taktu	!	!	!	!	!	!	!	!	!	!	!
4ryy	.	16dd\LL	.	16dd\LL	.	8d\	-di	8ff\	-di	.	.
.	.	16a\	.	16ff\	.	.	.	.	.	.	.
.	.	16g#\	.	16ee\	.	8d\	nos	8ff\	nos	.	.
.	.	16f\JJ	.	16dd\JJ	.	.	.	.	.	.	.
!LO:LB:g=original	!	!	!	!	!	!	!	!	!	!	!
=33	=33	=33	=33	=33	=33	=33	=33	=33	=33	=33	=33
!LO:TX:t=P:problem=mixed beam	!	!	!	!	!	!	!	!	!	!	!
8G\L	.	8g/	.	8ee\	.	8B-X\	Do-	8ee\	Do-	1ryy	1ryy
8G\	.	4f/	.	4dd\	.	4A\	.	4dd\	.	.	.
8A\	.	.	.	.	.	.	.	.	.	.	.
8AA/J	.	8e/	.	8cc#X\	.	8e\	.	8cc#X\	.	.	.
!LO:TX:t=P:problem=mixed beam	!	!LO:TX:a:t=P:problem=mixed beam	!	!	!	!	!	!	!	!	!
8D\L	.	16f/LL	.	16dd\LL	.	16f\LL	.	16dd\LL	.	.	.
.	.	16gg\	.	16bb-X\	.	16g\	.	16bb-X\	.	.	.
8G\	.	16ff\	.	16aa\	.	16f\	.	16aa\	.	.	.
.	.	16ee\JJ	.	16gg\JJ	.	16e\JJ	.	16gg\JJ	.	.	.
8A\	.	16a/LL	.	16ff\LL	.	16A/LL	.	16ff\LL	.	.	.
.	.	16g/	.	16ee\	.	16G/JJ	.	16een\JJ	.	.	.
!LO:TX:a:t=Da Capo	!	!	!	!	!	!	!	!	!	!	!
8AA/J	.	16f/	.	16dd\	.	16F/LL	-mi-	16dd\LL	-mi-	.	.
!	!	!LO:TX:a:t=Da capo	!	!LO:TX:a:t=Da Capo	!	!	!	!	!	!	!
.	.	16e/JJ	.	16cc#X\JJ	.	16E/JJ	.	16cc#X\JJ	.	.	.
!	!	!	!	!	!	!	!	!LO:LB:g=original	!	!	!
=34	=34	=34	=34	=34	=34	=34	=34	=34	=34	=34	=34
1yy/	.	1yy/	.	1yy/	.	4F/	-ne.	4dd\	-ne	1ryy	1ryy
.	.	.	.	.	.	4r	.	4r	.	.	.
.	.	.	.	.	.	2r	.	2r	.	.	.
!	!	!	!	!	!	!LO:LB:g=original	!	!	!	!	!
=35	=35	=35	=35	=35	=35	=35	=35	=35	=35	=35	=35
!	!	!LO:TX:a:t=P:problem=mixed beam	!	!LO:TX:t=P:problem=mixed beam	!	!	!	!	!	!	!
1yy/	.	1yy/	.	1yy/	.	00r	.	00r	.	1ryy	1ryy
=36	=36	=36	=36	=36	=36	=36	=36	=36	=36	=36	=36
1yy/	.	1yy/	.	1yy/	.	.	.	.	.	1ryy	1ryy
=37	=37	=37	=37	=37	=37	=37	=37	=37	=37	=37	=37
1yy/	.	1yy/	.	1yy/	.	.	.	.	.	1ryy	1ryy
=38	=38	=38	=38	=38	=38	=38	=38	=38	=38	=38	=38
1yy/	.	1yy/	.	1yy/	.	.	.	.	.	1ryy	1ryy
=39	=39	=39	=39	=39	=39	=39	=39	=39	=39	=39	=39
1yy/	.	1yy/	.	1yy/	.	0r	.	0r	.	1ryy	1ryy
=40	=40	=40	=40	=40	=40	=40	=40	=40	=40	=40	=40
1yy/	.	1yy/	.	1yy/	.	.	.	.	.	1ryy	1ryy
=41||	=41||	=41||	=41||	=41||	=41||	=41||	=41||	=41||	=41||	=41||	=41||
*k[f#c#]	*	*k[f#c#]	*	*k[f#c#]	*	*k[f#c#]	*	*k[f#c#]	*	*k[f#c#]	*k[f#c#]
*M4/4	*	*M4/4	*	*M4/4	*	*M4/4	*	*M4/4	*	*M4/4	*M4/4
*met(c)	*	*met(c)	*	*met(c)	*	*met(c)	*	*met(c)	*	*met(c)	*met(c)
!LO:TX:rj:b:t=Agnus	!	!LO:TX:rj:b:t=Agnus	!	!LO:TX:rj:b:t=Agnus	!	!	!	!	!	!LO:TX:rj:b:t=Agnus	!LO:TX:a:t=adagio
!LO:TX:rj:a:t=adagio	!	!LO:TX:rj:a:t=adagio	!	!LO:TX:rj:a:t=adagio	!	!LO:TX:rj:a:t=adagio	!	!LO:TX:rj:a:t=Adagio	!	!LO:TX:rj:a:t=Adagio	!LO:TX:b:t=Agnus Dei
4D\	.	4ff#\	.	4aa\	.	4f#\	Ag-	4a\	Ag-	4ff#\	4aa\
4D\	.	4ff#\	.	4aa\	.	4f#\	-nus	4a\	-nus	4ff#\	4aa\
4G\	.	4ee\	.	4gg\	.	4g\	De-	(4b\	De-	4ee\	4gg\
4A\	.	4cc#\	.	4ee\	.	4e\	.	4cc#\)	.	4a/	4ee\
=42	=42	=42	=42	=42	=42	=42	=42	=42	=42	=42	=42
1D\	.	1dd\	.	1ff#\;	.	1f#\	-i	1dd\;	-i	1dd\	1ff#\
=43||	=43||	=43||	=43||	=43||	=43||	=43||	=43||	=43||	=43||	=43||	=43||
!LO:TX:a:t=Allo&colon;	!	!LO:TX:a:t=Allo&colon;	!	!LO:TX:a:t=Allo	!	!	!	!LO:TX:a:t=Allo	!	!LO:TX:a:t=Allo&colon;	!LO:TX:a:t=Allo
8D\L	.	8dd\L	.	8dd\L	.	00r	.	00r	.	8dd\L	8ff#\L
8E\	.	8dd\	.	8dd\	.	.	.	.	.	16dd\L	16ff#\L
.	.	.	.	.	.	.	.	.	.	16ee\JJ	16gg\JJ
8F#\	.	8dd\	.	8dd\	.	.	.	.	.	8ff#\L	8aa\L
8E\J	.	8dd\J	.	8dd\J	.	.	.	.	.	8ee\J	8gg\J
4D\	.	(16ff#\LL	.	(16ff#\LL	.	.	.	.	.	4dd\	4ff#\
.	.	16cc#\J	.	16cc#\J)	.	.	.	.	.	.	.
.	.	8dd\J)	.	8dd\J	.	.	.	.	.	.	.
4r	.	(16aa\LL	.	(16aa\LL	.	.	.	.	.	4r	4r
.	.	16cc#\J	.	16cc#\J)	.	.	.	.	.	.	.
.	.	8dd\J)	.	8dd\J	.	.	.	.	.	.	.
=44	=44	=44	=44	=44	=44	=44	=44	=44	=44	=44	=44
8D\L	.	8dd\L	.	8dd\L	.	.	.	.	.	8dd\L	8ff#\L
8E\	.	8dd\	.	8dd\	.	.	.	.	.	16dd\L	16ff#\L
.	.	.	.	.	.	.	.	.	.	16ee\JJ	16gg\JJ
8F#\	.	8dd\	.	8dd\	.	.	.	.	.	8ff#\L	8aa\L
8E\J	.	8dd\J	.	8dd\J	.	.	.	.	.	8ee\J	8gg\J
4D\	.	(16ff#\LL	.	(16ff#\LL	.	.	.	.	.	4dd\	4ff#\
.	.	16cc#\J	.	16cc#\J)	.	.	.	.	.	.	.
.	.	8dd\J)	.	8dd\J	.	.	.	.	.	.	.
4r	.	(16aa\LL	.	(16aa\LL	.	.	.	.	.	4r	4r
.	.	16cc#\J	.	16cc#\J)	.	.	.	.	.	.	.
.	.	8dd\J)	.	8dd\J	.	.	.	.	.	.	.
=45	=45	=45	=45	=45	=45	=45	=45	=45	=45	=45	=45
!LO:TX:t=P:problem=mixed beam	!	!	!	!	!	!	!	!	!	!	!
8D\L	.	16dd\LL	.	16dd\LL	.	.	.	.	.	8dd\L	8ff#\L
.	.	16ddd\	.	16ddd\	.	.	.	.	.	.	.
8F#\	.	16aa\	.	16aa\	.	.	.	.	.	8ff#\J	8aa\J
.	.	16dd\JJ	.	16ff#\JJ	.	.	.	.	.	.	.
.	.	8qqaa/	.	8qqaa/	.	.	.	.	.	.	.
8E\	.	4gg\	.	4gg\	.	.	.	.	.	4ee\	4gg\
8AA/J	.	.	.	.	.	.	.	.	.	.	.
!LO:TX:t=P:problem=mixed beam	!	!	!	!	!	!	!	!	!	!	!
8D\L	.	16ff#\LL	.	16ff#\LL	.	.	.	.	.	8dd\L	8ff#\L
.	.	16dd\JJ	.	16dd\	.	.	.	.	.	.	.
8F#\	.	16a/LL	.	16a\	.	.	.	.	.	8ff#\J	8aa\J
.	.	16f#/JJ	.	16f#\JJ	.	.	.	.	.	.	.
.	.	8qqa/	.	8qqa/	.	.	.	.	.	.	.
8E\	.	4g/	.	4g/	.	.	.	.	.	4ee\	4gg\
8AA/J	.	.	.	.	.	.	.	.	.	.	.
=46	=46	=46	=46	=46	=46	=46	=46	=46	=46	=46	=46
*tremolo	*	*	*	*	*	*	*	*	*	*	*
!	!	!LO:TUP:b	!	!LO:TUP:b	!	!	!	!	!	!	!
8D/L	.	24f#/LL	.	24f#/LL	.	.	.	.	.	4dd\	4ff#\
.	.	24d/	.	24d/	.	.	.	.	.	.	.
.	.	24e/	.	24e/	.	.	.	.	.	.	.
8D/	.	24f#/	.	24f#/	.	.	.	.	.	.	.
.	.	24e/	.	24e/	.	.	.	.	.	.	.
.	.	24d/JJ	.	24d/JJ	.	.	.	.	.	.	.
8D/	.	16dd\LL	.	16dd\LL	.	.	.	.	.	8r	8r
.	.	16ff#\	.	16ff#\	.	.	.	.	.	.	.
8D/J	.	16ee\	.	16ee\	.	.	.	.	.	8dd\	8ff#\
.	.	16dd\JJ	.	16dd\JJ	.	.	.	.	.	.	.
*Xtremolo	*	*	*	*	*	*	*	*	*	*	*
!	!	!	!	!LO:TX:t=P:problem=mixed beam	!	!	!	!	!	!	!
8C#/L	.	24aa\LL	.	24aa\LL	.	.	.	.	.	4a/	4ee\
.	.	24a\	.	24a/	.	.	.	.	.	.	.
.	.	24b\	.	24b/	.	.	.	.	.	.	.
8C#/	.	24cc#\	.	24cc#/	.	.	.	.	.	.	.
.	.	24b\	.	24b/	.	.	.	.	.	.	.
.	.	24a\JJ	.	24a/JJ	.	.	.	.	.	.	.
!	!	!LO:TX:t=P:problem=mixed beam	!	!LO:TX:t=P:problem=mixed beam	!	!	!	!	!	!	!
8AA/	.	16a/LL	.	16a/LL	.	.	.	.	.	8r	8r
.	.	16gg\	.	16gg\	.	.	.	.	.	.	.
8BB/J	.	16ff#\	.	16ff#\	.	.	.	.	.	8a/	8ee\
.	.	16ee\JJ	.	16ee\JJ	.	.	.	.	.	.	.
=47	=47	=47	=47	=47	=47	=47	=47	=47	=47	=47	=47
*	*	*	*	*XTuplet	*	*	*	*	*	*	*
!	!	!	!	!LO:TX:t=P:problem=klamra łukowa, kropka zamiast numeru	!	!	!	!	!	!	!
8D\L	.	(32ff#\LLL	.	24ff#\LL	.	00r	.	00r	.	4dd\	4ff#\
.	.	32ee\J	.	.	.	.	.	.	.	.	.
.	.	.	.	24ee\	.	.	.	.	.	.	.
.	.	16dd\)	.	.	.	.	.	.	.	.	.
.	.	.	.	24dd\	.	.	.	.	.	.	.
8D\	.	16bb'\	.	16bb\	.	.	.	.	.	.	.
.	.	16bb'\JJ	.	16bb\JJ	.	.	.	.	.	.	.
!	!	!	!	!LO:TX:t=P:problem=klamra łukowa, kropka zamiast numeru	!	!	!	!	!	!	!
8C#\	.	(32ee\LLL	.	24ee\LL	.	.	.	.	.	4r	4r
.	.	32dd\J	.	.	.	.	.	.	.	.	.
.	.	.	.	24dd\	.	.	.	.	.	.	.
.	.	16cc#\)	.	.	.	.	.	.	.	.	.
.	.	.	.	24cc#\	.	.	.	.	.	.	.
8C#\J	.	16aa'\	.	16aa'\	.	.	.	.	.	.	.
.	.	16aa'\JJ	.	16aa'\JJ	.	.	.	.	.	.	.
!	!	!LO:LB:g=original	!	!LO:LB:g=original	!	!	!	!	!	!	!
!	!	!LO:TX:t=P:problem=klamra łukowa, kropka zamiast numeru	!	!LO:TX:t=P:problem=klamra łukowa, kropka zamiast numeru	!	!	!	!	!	!	!
8BB/L	.	24dd\LL	.	24dd\LL	.	.	.	.	.	2r	2r
.	.	24cc#\	.	24cc#\	.	.	.	.	.	.	.
.	.	24b\	.	24b\JJ	.	.	.	.	.	.	.
8BB/	.	16gg'\	.	16gg'\LL	.	.	.	.	.	.	.
.	.	16gg'\JJ	.	16gg'\JJ	.	.	.	.	.	.	.
!	!	!LO:TX:t=P:problem=klamra łukowa, kropka zamiast numeru	!	!LO:TX:t=P:problem=klamra łukowa, kropka zamiast numeru	!	!	!	!	!	!	!
8AA/	.	24cc#\LL	.	24cc#\LL	.	.	.	.	.	.	.
.	.	24b\	.	24b\	.	.	.	.	.	.	.
.	.	24a\	.	24a\JJ	.	.	.	.	.	.	.
8AA/J	.	16ff#'\	.	16ff#'\LL	.	.	.	.	.	.	.
.	.	16ff#'\JJ	.	16ff#'\JJ	.	.	.	.	.	.	.
=48	=48	=48	=48	=48	=48	=48	=48	=48	=48	=48	=48
!	!	!LO:TX:t=P:problem=klamra łukowa, kropka zamiast numeru	!	!LO:TX:t=P:problem=klamra łukowa, kropka zamiast numeru	!	!	!	!	!	!	!
8G\L	.	24b\LL	.	24b/LL	.	.	.	.	.	2r	2r
.	.	24a\	.	24a/	.	.	.	.	.	.	.
.	.	24g\	.	24g/JJ	.	.	.	.	.	.	.
8G\	.	16ee'\	.	16ee'\LL	.	.	.	.	.	.	.
.	.	16ee'\JJ	.	16ee'\JJ	.	.	.	.	.	.	.
!	!	!LO:TX:t=P:problem=klamra łukowa, kropka zamiast numeru	!	!LO:TX:t=P:problem=klamra łukowa, kropka zamiast numeru	!	!	!	!	!	!	!
8F#\	.	24a/LL	.	24a/LL	.	.	.	.	.	.	.
.	.	24g/	.	24g/	.	.	.	.	.	.	.
.	.	24f#/JJ	.	24f#/JJ	.	.	.	.	.	.	.
8F#\J	.	16dd'\LL	.	16dd'\LL	.	.	.	.	.	.	.
.	.	16dd'\JJ	.	16dd'\JJ	.	.	.	.	.	.	.
!LO:TX:t=P:problem=mixed beam	!	!	!	!	!	!	!	!	!	!	!
8A\L	.	16cc#\LL	.	16cc#\LL	.	.	.	.	.	8a/L	8ee\L
.	.	16dd\	.	16dd\	.	.	.	.	.	.	.
8AA/	.	16ee\	.	16ee\	.	.	.	.	.	8a/	8ee\
.	.	16dd\JJ	.	16dd\JJ	.	.	.	.	.	.	.
8AA/	.	16cc#\LL	.	16cc#\LL	.	.	.	.	.	8a/	8ee\
.	.	16b\	.	16b\	.	.	.	.	.	.	.
8AA/J	.	16a\	.	16a\	.	.	.	.	.	8a/J	8ee\J
.	.	16g\JJ	.	16g\JJ	.	.	.	.	.	.	.
=49	=49	=49	=49	=49	=49	=49	=49	=49	=49	=49	=49
*tremolo	*	*	*	*	*	*	*	*	*	*	*
!	!	!LO:TX:t=P:problem=mixed beam	!	!LO:TX:t=P:problem=mixed beam	!	!	!	!	!	!	!
8D\L	.	8f#/L	.	8f#/L	.	.	.	.	.	4dd\	4ff#\
8D\	.	16aa\L	.	16aa\L	.	.	.	.	.	.	.
!	!	!	!	!LO:TX:a:t=fis	!	!	!	!	!	!	!
.	.	16ff#\JJ	.	16ff#\JJ	.	.	.	.	.	.	.
8D\	.	16ee\LL	.	16ee\LL	.	.	.	.	.	8r	8r
.	.	16dd\	.	16dd\	.	.	.	.	.	.	.
8D\J	.	16cc#\	.	16cc#\	.	.	.	.	.	8dd\	8ff#\
.	.	16dd\JJ	.	16dd\JJ	.	.	.	.	.	.	.
8AA/L	.	16cc#\LL	.	16cc#\LL	.	.	.	.	.	8a/L	8ee\L
.	.	16dd\	.	16dd\	.	.	.	.	.	.	.
8AA/	.	16ee\	.	16ee\	.	.	.	.	.	16a/L	8ee\
.	.	16dd\JJ	.	16dd\JJ	.	.	.	.	.	16a/JJ	.
8AA/	.	16cc#\LL	.	16cc#\LL	.	.	.	.	.	8a/L	8ee\
.	.	16b\	.	16b\	.	.	.	.	.	.	.
8AA/J	.	16a\	.	16a\	.	.	.	.	.	8a/J	8ee\J
.	.	16g\JJ	.	16g\JJ	.	.	.	.	.	.	.
!LO:LB:g=original	!	!	!	!	!	!	!	!	!	!LO:LB:g=original	!
=50	=50	=50	=50	=50	=50	=50	=50	=50	=50	=50	=50
8D\L	.	16f#/LL	.	16f#/LL	.	.	.	.	.	8dd\L	8ff#\L
.	.	16d/JJ	.	16d/	.	.	.	.	.	.	.
8D\	.	16a/LL	.	16a/	.	.	.	.	.	16dd\L	16ff#\L
.	.	16f#/JJ	.	16f#/JJ	.	.	.	.	.	16dd\JJ	16ff#\JJ
8D\	.	16dd\LL	.	16dd\LL	.	.	.	.	.	8dd\L	8ff#\L
.	.	16a\	.	16a\	.	.	.	.	.	.	.
8D\J	.	16ff#\	.	16ff#\	.	.	.	.	.	8dd\J	8ff#\J
.	.	16dd\JJ	.	16dd\JJ	.	.	.	.	.	.	.
*Xtremolo	*	*	*	*	*	*	*	*	*	*	*
!LO:TX:t=P:problem=mixed beam	!	!	!	!	!	!	!	!	!	!	!
8G\L	.	8b\L	.	8b\L	.	.	.	.	.	8dd\L	8ff#\L
8E\	.	16gg\L	.	16gg\L	.	.	.	.	.	8dd\	8ff#\
.	.	16ee\JJ	.	16ee\JJ	.	.	.	.	.	.	.
.	.	8qqdd/	.	8qqdd/	.	.	.	.	.	.	.
8A\	.	4cc#\	.	4cc#\	.	.	.	.	.	8a\	8ee\
8AA/J	.	.	.	.	.	.	.	.	.	8a\J	8ee\J
!	!	!	!	!	!	!	!	!	!	!	!LO:LB:g=original
=51	=51	=51	=51	=51	=51	=51	=51	=51	=51	=51	=51
!	!	!	!LO:DY:a:t=for	!	!	!LO:TX:a:t=Allo&colon;	!	!	!	!	!
8D\L	.	8dd\L	f	8dd\L	.	8d\	Ag-	8ff#\	Ag-	8dd\L	8ff#\L
8E\	.	8dd\	.	8dd\	.	8d\	-nus	8ff#\	-nus	16dd\L	16ff#\L
.	.	.	.	.	.	.	.	.	.	16ee\JJ	16gg\JJ
8F#\	.	8dd\	.	8dd\	.	4d\	De-	4ff#\	De-	8ff#\L	8aa\L
8E\J	.	8dd\J	.	8dd\J	.	.	.	.	.	8ee\J	8gg\J
4D\	.	(16ff#\LL	.	(16gg\LL	.	4d\	-i	4ff#\	-i	4dd\	4ff#\
.	.	16cc#\J	.	16cc#\J)	.	.	.	.	.	.	.
.	.	8dd\J)	.	8dd\J	.	.	.	.	.	.	.
4r	.	(16aa\LL	.	(16aa\LL	.	4r	.	4r	.	4r	4r
.	.	16cc#\J	.	16cc#\J)	.	.	.	.	.	.	.
.	.	8dd\J)	.	8dd\J	.	.	.	.	.	.	.
=52	=52	=52	=52	=52	=52	=52	=52	=52	=52	=52	=52
*	*	*	*	*	*	*	*ij	*	*ij	*	*
8D\L	.	8dd\L	.	8dd\L	.	8d\	Ag-	8ff#\	Ag-	8dd\L	8ff#\L
8E\	.	8dd\	.	8dd\	.	8d\	-nus	8ff#\	-nus	16dd\L	16ff#\L
.	.	.	.	.	.	.	.	.	.	16ee\JJ	16gg\JJ
8F#\	.	8dd\	.	8dd\	.	4d\	De-	4ff#\	De-	8ff#\L	8aa\L
8E\J	.	8dd\J	.	8dd\J	.	.	.	.	.	8ee\J	8gg\J
4D\	.	(16ff#\LL	.	(16ff#\LL	.	4d\	-i	4ff#\	-i	4dd\	4ff#\
.	.	16cc#\J	.	16cc#\J)	.	.	.	.	.	.	.
.	.	8dd\J)	.	8dd\J	.	.	.	.	.	.	.
4r	.	(16aa\LL	.	(16aa\LL	.	4r	.	4r	.	4r	4r
.	.	16cc#\J	.	16cc#\J)	.	.	.	.	.	.	.
.	.	8dd\J)	.	8dd\J	.	.	.	.	.	.	.
!	!	!	!	!LO:LB:g=original	!	!	!	!	!	!	!
*	*	*	*	*	*	*	*Xij	*	*Xij	*	*
=53	=53	=53	=53	=53	=53	=53	=53	=53	=53	=53	=53
!LO:TX:t=P:problem=mixed beam	!	!	!	!	!	!	!	!	!	!	!
8D\L	.	16dd\LL	.	16dd\LL	.	8d\L	qui	4ff#\	qui	8dd\L	8ff#\L
.	.	16ddd\	.	16ddd\	.	.	.	.	.	.	.
8D\	.	16aa\	.	16aa\	.	8A\J	.	.	.	8ff#\J	8aa\J
.	.	16ff#\JJ	.	16ff#\JJ	.	.	.	.	.	.	.
.	.	8qqaa/	.	8qqaa/	.	8qqA/	.	8qqff#/	.	.	.
8E\	.	4gg\	.	4gg\	.	4G/	tol-	4ee\	lol-	4ee\	4gg\
8AA/J	.	.	.	.	.	.	.	.	.	.	.
!	!	!LO:LB:g=original	!	!	!	!	!	!	!	!	!
!LO:TX:t=P:problem=mixed beam	!	!	!	!	!	!	!	!	!	!	!
8D/L	.	16ff#\LL	.	16ff#\LL	.	8F#/L	.	8dd\L	.	8dd\L	8ff#\L
.	.	16dd\	.	16dd\	.	.	.	.	.	.	.
8D/	.	16a\	.	16a\	.	8A/J	.	8ff#\J	.	8ff#\J	8aa\J
.	.	16f#\JJ	.	16f#\JJ	.	.	.	.	.	.	.
.	.	8qqa/	.	8qqa/	.	8qqA/	.	8qqff#/	.	.	.
8E/	.	4g/	.	4g/	.	4G/	.	4ee\	.	4ee\	4gg\
8AA/J	.	.	.	.	.	.	.	.	.	.	.
!	!	!	!	!	!	!	!	!LO:LB:g=original	!	!	!
=54	=54	=54	=54	=54	=54	=54	=54	=54	=54	=54	=54
8D\L	.	24f#/LL	.	24f#/LL	.	4F#/	-lis	4dd\	-lis	8dd\L	8ff#\L
.	.	24d/	.	24d/	.	.	.	.	.	.	.
.	.	24f#/	.	24e/	.	.	.	.	.	.	.
8E\	.	24g/	.	24f#/	.	.	.	.	.	16dd\L	16ff#\L
.	.	24f#/	.	24e/	.	.	.	.	.	.	.
.	.	.	.	.	.	.	.	.	.	16dd\JJ	16ff#\JJ
.	.	24e/JJ	.	24d/JJ	.	.	.	.	.	.	.
8F#\	.	16dd\LL	.	16dd\LL	.	8r	.	8r	.	4dd\	4ff#\
.	.	16ff#\	.	16ff#\	.	.	.	.	.	.	.
8F#\J	.	16ee\	.	16ee\	.	8A\	qui	8dd\	qui	.	.
.	.	16dd\JJ	.	16dd\JJ	.	.	.	.	.	.	.
!	!	!	!	!	!	!LO:LB:g=original	!	!	!	!	!
!	!	!LO:TX:t=P:problem=mixed beam	!	!LO:TX:t=P:problem=mixed beam	!	!	!	!	!	!	!
8G\L	.	16b\LL	.	16dd\LL	.	8B\L	to-	2ddT\	tol-	2r	2r
.	.	16d/JJ	.	16d/JJ	.	.	.	.	.	.	.
!	!	!LO:TX:t=P:problem=mixed beam	!	!LO:TX:t=P:problem=mixed beam	!	!	!	!	!	!	!
8A\	.	16ccn\LL	.	16dd\LL	.	8cn\	.	.	.	.	.
.	.	16d/JJ	.	16d/JJ	.	.	.	.	.	.	.
!	!	!LO:TX:t=P:problem=mixed beam	!	!LO:TX:t=P:problem=mixed beam	!	!	!	!	!	!	!
8B\	.	16dd\LL	.	16dd\LL	.	8d\	.	.	.	.	.
.	.	16d/JJ	.	16d/JJ	.	.	.	.	.	.	.
!	!	!	!	!LO:TX:t=P:problem=mixed beam	!	!	!	!	!	!	!
8F#\J	.	16a/LL	.	16dd\LL	.	8A\J	.	.	.	.	.
.	.	16d/JJ	.	16d/JJ	.	.	.	.	.	.	.
=55	=55	=55	=55	=55	=55	=55	=55	=55	=55	=55	=55
!	!	!LO:TX:t=P:problem=mixed beam	!	!LO:TX:t=P:problem=mixed beam	!	!	!	!	!	!	!
8G\L	.	16b\LL	.	16dd\LL	.	8B\L	.	4dd\	-lis	0r	0r
.	.	16d/JJ	.	16d/JJ	.	.	.	.	.	.	.
!	!	!	!	!LO:TX:t=P:problem=mixed beam	!	!	!	!	!	!	!
8A\	.	16ccn\LL	.	16dd\LL	.	8cn\J	.	.	.	.	.
.	.	16d/JJ	.	16d/JJ	.	.	.	.	.	.	.
!	!	!LO:TX:t=P:problem=mixed beam	!	!LO:TX:t=P:problem=mixed beam	!	!	!	!	!	!	!
8B\	.	16dd\LL	.	16dd\LL	.	8d\	-lis	8r	.	.	.
.	.	16d/JJ	.	16d/JJ	.	.	.	.	.	.	.
!	!	!LO:TX:t=P:problem=mixed beam	!	!LO:TX:t=P:problem=mixed beam	!	!	!	!	!	!	!
8G#X\J	.	16b\LL	.	16ee\LL	.	8B\	pec-	8ee\	pec-	.	.
.	.	16e/JJ	.	16e/JJ	.	.	.	.	.	.	.
!	!	!LO:TX:t=P:problem=mixed beam	!	!LO:TX:t=P:problem=mixed beam	!	!	!	!	!	!	!
8A\L	.	16cc#X\LL	.	16ee\LL	.	8c#X\L	-ca-	2ee\	-ca-	.	.
.	.	16e/JJ	.	16e/JJ	.	.	.	.	.	.	.
!	!	!LO:TX:t=P:problem=mixed beam	!	!LO:TX:t=P:problem=mixed beam	!	!	!	!	!	!	!
8B\	.	16dd/LL	.	16ee\LL	.	8d\	.	.	.	.	.
.	.	16e/JJ	.	16e/JJ	.	.	.	.	.	.	.
!	!	!LO:TX:t=P:problem=mixed beam	!	!LO:TX:t=P:problem=mixed beam	!	!	!	!	!	!	!
8c#\	.	16ee\LL	.	16ee\LL	.	8e\	.	.	.	.	.
.	.	16e/JJ	.	16e/JJ	.	.	.	.	.	.	.
!	!	!LO:TX:t=P:problem=mixed beam	!	!LO:TX:t=P:problem=mixed beam	!	!	!	!	!	!	!
8G#X\J	.	16dd\LL	.	16ee\LL	.	8B\J	.	.	.	.	.
.	.	16e/JJ	.	16e/JJ	.	.	.	.	.	.	.
=56	=56	=56	=56	=56	=56	=56	=56	=56	=56	=56	=56
!	!	!LO:TX:t=P:problem=mixed beam	!	!LO:TX:t=P:problem=mixed beam	!	!	!	!	!	!	!
8A\L	.	16cc#X\LL	.	16ee\LL	.	8c#\L	.	4ee\	-ta	.	.
.	.	16e/JJ	.	16e/JJ	.	.	.	.	.	.	.
!	!	!LO:TX:t=P:problem=mixed beam	!	!LO:TX:t=P:problem=mixed beam	!	!	!	!	!	!	!
8B\	.	16dd\LL	.	16ee\LL	.	8d\J	.	.	.	.	.
.	.	16e/JJ	.	16e/JJ	.	.	.	.	.	.	.
!	!	!LO:TX:t=P:problem=mixed beam	!	!LO:TX:t=P:problem=mixed beam	!	!	!	!	!	!	!
8c#\	.	16ee\LL	.	16ee\LL	.	8e\	-ta	8r	.	.	.
.	.	16e/JJ	.	16e/JJ	.	.	.	.	.	.	.
!	!	!LO:TX:t=P:problem=mixed beam	!	!LO:TX:t=P:problem=mixed beam	!	!	!	!	!	!	!
8A#X\J	.	16cc#X\LL	.	16ff#\LL	.	8c#\	mun-	8ff#\	mun-	.	.
.	.	16f#/JJ	.	16f#/JJ	.	.	.	.	.	.	.
!	!	!LO:TX:t=P:problem=mixed beam	!	!LO:TX:t=P:problem=mixed beam	!	!	!	!	!	!	!
8B\L	.	16dd\LL	.	16ff#\LL	.	8d\L	.	2ff#\	.	.	.
.	.	16f#/JJ	.	16f#/JJ	.	.	.	.	.	.	.
!	!	!LO:TX:t=P:problem=mixed beam	!	!LO:TX:t=P:problem=mixed beam	!	!	!	!	!	!	!
8c#\	.	16ee\LL	.	16ff#\LL	.	8e\	.	.	.	.	.
.	.	16f#/JJ	.	16f#/JJ	.	.	.	.	.	.	.
!	!	!LO:TX:t=P:problem=mixed beam	!	!LO:TX:t=P:problem=mixed beam	!	!	!	!	!	!	!
8d\	.	16ff#\LL	.	16ff#\LL	.	8f#\	.	.	.	.	.
.	.	16f#/JJ	.	16f#/JJ	.	.	.	.	.	.	.
!	!	!LO:TX:t=P:problem=mixed beam	!	!LO:TX:t=P:problem=mixed beam	!	!	!	!	!	!	!
8A#X\J	.	16cc#\LL	.	16ff#\LL	.	8c#\J	.	.	.	.	.
.	.	16f#/JJ	.	16f#/JJ	.	.	.	.	.	.	.
=57	=57	=57	=57	=57	=57	=57	=57	=57	=57	=57	=57
!	!	!LO:TX:t=P:problem=mixed beam	!	!LO:TX:t=P:problem=mixed beam	!	!	!	!	!	!	!
8B\L	.	16dd\LL	.	16ff#\LL	.	8d\L	.	4ff#\	.	2r	2r
.	.	16f#/JJ	.	16f#/JJ	.	.	.	.	.	.	.
!	!	!LO:TX:t=P:problem=mixed beam	!	!LO:TX:t=P:problem=mixed beam	!	!	!	!	!	!	!
8c#\	.	16ee\LL	.	16ff#\LL	.	8e\J	.	.	.	.	.
.	.	16f#/JJ	.	16f#/JJ	.	.	.	.	.	.	.
!	!	!LO:TX:t=P:problem=mixed beam	!	!LO:TX:t=P:problem=mixed beam	!	!	!	!	!	!	!
8d\	.	16ff#\LL	.	16ff#\LL	.	4f#\	-di	4ff#\	-di	.	.
.	.	16f#\JJ	.	16f#/JJ	.	.	.	.	.	.	.
!	!	!LO:TX:t=P:problem=mixed beam	!	!LO:TX:t=P:problem=mixed beam	!	!	!	!	!	!	!
8B\J	.	16dd\LL	.	16ff#\LL	.	.	.	.	.	.	.
.	.	16f#/JJ	.	16f#/JJ	.	.	.	.	.	.	.
*	*	*tremolo	*	*tremolo	*	*	*	*	*	*	*
8e\L	.	16a/LL	.	16gg\LL	.	4B\	mi-	4gg\	mi-	4dd\	4gg\
.	.	16a/	.	16gg\	.	.	.	.	.	.	.
8E\	.	16a/	.	16gg\	.	.	.	.	.	.	.
.	.	16a/JJ	.	16gg\JJ	.	.	.	.	.	.	.
8A\	.	16cc#\LL	.	16ee\LL	.	4c#\	-se-	4ee\	-se-	4a/	4ee\
.	.	16cc#\	.	16ee\	.	.	.	.	.	.	.
8A\J	.	16cc#\	.	16ee\	.	.	.	.	.	.	.
.	.	16cc#\JJ	.	16ee\JJ	.	.	.	.	.	.	.
*	*	*Xtremolo	*	*Xtremolo	*	*	*	*	*	*	*
!LO:LB:g=original	!	!LO:LB:g=original	!	!LO:LB:g=original	!	!	!	!	!	!	!
=58	=58	=58	=58	=58	=58	=58	=58	=58	=58	=58	=58
16D\LL	.	8dd\L	.	16ff#\LL	.	4d\	-re-	4ff#\	-re-	4dd\	4ff#\
16E\	.	.	.	16dd\	.	.	.	.	.	.	.
16F#\	.	8ff#\	.	16aa\	.	.	.	.	.	.	.
16G#X\JJ	.	.	.	16ddd\JJ	.	.	.	.	.	.	.
!LO:TX:t=P:problem=mixed beam	!	!	!	!	!	!	!	!	!	!	!
8A\L	.	8ee\	.	8ccc#\L	.	4c#\	-re	4ee\	-re	4a/	4ee\
8AA/J	.	8cc#\J	.	8aa\J	.	.	.	.	.	.	.
4D\	.	4a/	.	8ff#\L	.	4A\	mi-	4ff#\	mi-	4dd\	4ff#\
.	.	.	.	8dd\	.	.	.	.	.	.	.
4E\	.	4b/	.	8gg#X\	.	4B\	-se-	4gg#X\	-se-	4ee\	4ee\
.	.	.	.	8ee\J	.	.	.	.	.	.	.
=59	=59	=59	=59	=59	=59	=59	=59	=59	=59	=59	=59
8AA/L	.	8cc#\L	.	8aa\L	.	8c#\L	-re-	8aa\L	-re-	4a/	4ee\
8BB/	.	16ee\L	.	16gg#X\L	.	16e\L	.	16gg#X\L	.	.	.
.	.	16dd\JJ	.	16ff#\JJ	.	16d\JJ	.	16ff#\JJ	.	.	.
8C#/	.	16cc#\LL	.	16ee\LL	.	16c#\LL	.	16ee\LL	.	4r	4r
.	.	16b\	.	16dd\	.	16f#\JJ	.	16dd\JJ	.	.	.
8D/J	.	16a\	.	16cc#\	.	16e\LL	-re	16cc#\LL	-re	.	.
.	.	16b\JJ	.	16b\JJ	.	16d\JJ	.	16b\JJ	.	.	.
4E\	.	4a/	.	4a/	.	4c#\	no-	4a\	no-	4ee\	4ee\
4EE/	.	4bT/	.	4b/	.	4BT\	.	4bT\	.	4ee\	4ee\
=60	=60	=60	=60	=60	=60	=60	=60	=60	=60	=60	=60
!LO:TX:t=P:problem=mixed beam	!	!	!	!LO:TX:t=P:problem=klamra łukowa, kropka zamiast numeru	!	!	!	!	!	!	!
8AA/L	.	(32cc#\LLL	.	24cc#\LL	.	4c#\	-bis	4a\	-bis	4a/	4ee\
.	.	32b\J	.	.	.	.	.	.	.	.	.
.	.	.	.	24b\	.	.	.	.	.	.	.
.	.	16a\)	.	.	.	.	.	.	.	.	.
.	.	.	.	24a\JJ	.	.	.	.	.	.	.
8A\	.	(16ff#'\	.	16ff#'\LL	.	.	.	.	.	.	.
.	.	16ff#'\JJ)	.	16ff#'\JJ	.	.	.	.	.	.	.
!	!	!	!	!LO:TX:t=P:problem=klamra łukowa, kropka zamiast numeru	!	!	!	!	!	!	!
8G#X\	.	(32b\LLL	.	24b/LL	.	4r	.	4r	.	4r	4r
.	.	32a\J	.	.	.	.	.	.	.	.	.
.	.	.	.	24a/	.	.	.	.	.	.	.
.	.	16g#X\)	.	.	.	.	.	.	.	.	.
.	.	.	.	24g#X/JJ	.	.	.	.	.	.	.
8G#\J	.	16ee\	.	16ee'\LL	.	.	.	.	.	.	.
.	.	16ee\JJ	.	16ee'\JJ	.	.	.	.	.	.	.
!	!	!LO:TX:t=P:problem=klamra łukowa, kropka zamiast numeru	!	!	!	!	!	!	!	!	!
!	!	!LO:TX:t=P:problem=mixed beam	!	!LO:TX:t=P:problem=klamra łukowa, kropka zamiast numeru	!	!	!	!	!	!	!
8F#\L	.	24a/LL	.	24a/LL	.	2r	.	2r	.	2r	2r
.	.	24g#X/	.	24g#X/	.	.	.	.	.	.	.
.	.	24f#/	.	24f#/JJ	.	.	.	.	.	.	.
8F#\	.	16dd\	.	16dd'\LL	.	.	.	.	.	.	.
.	.	16dd\JJ	.	16dd'\JJ	.	.	.	.	.	.	.
!	!	!LO:TX:t=P:problem=klamra łukowa, kropka zamiast numeru	!	!LO:TX:t=P:problem=klamra łukowa, kropka zamiast numeru	!	!	!	!	!	!	!
8E\	.	24g#X/LL	.	24g#X/LL	.	.	.	.	.	.	.
.	.	24f#/	.	24f#/	.	.	.	.	.	.	.
.	.	24e/	.	24e/JJ	.	.	.	.	.	.	.
8E\J	.	16cc#'\	.	16cc#'\LL	.	.	.	.	.	.	.
.	.	16cc#'\JJ	.	16cc#'\JJ	.	.	.	.	.	.	.
!	!	!	!	!	!	!LO:LB:g=original	!	!	!	!	!
=61	=61	=61	=61	=61	=61	=61	=61	=61	=61	=61	=61
!	!	!LO:TX:t=P:problem=klamra łukowa, kropka zamiast numeru	!	!	!	!	!	!	!	!	!
!	!	!LO:TX:t=P:problem=mixed beam	!	!LO:TX:t=P:problem=klamra łukowa, kropka zamiast numeru	!	!	!	!	!	!	!
8D\L	.	24f#/LL	.	24f#/LL	.	0r	.	0r	.	2r	2r
.	.	24e/	.	24e/	.	.	.	.	.	.	.
.	.	24d/	.	24d/JJ	.	.	.	.	.	.	.
8D\	.	16b\	.	16b'/LL	.	.	.	.	.	.	.
.	.	16b\JJ	.	16b'/JJ	.	.	.	.	.	.	.
!	!	!LO:TX:t=P:problem=klamra łukowa, kropka zamiast numeru	!	!LO:TX:t=P:problem=klamra łukowa, kropka zamiast numeru	!	!	!	!	!	!	!
8C#\	.	24e/LL	.	24e/LL	.	.	.	.	.	.	.
.	.	24d/	.	24d/	.	.	.	.	.	.	.
.	.	24c#/	.	24c#/JJ	.	.	.	.	.	.	.
8C#\J	.	16a'/	.	16a'/LL	.	.	.	.	.	.	.
.	.	16a'/JJ	.	16a'/JJ	.	.	.	.	.	.	.
8E\L	.	16g#X/LL	.	16g#X/LL	.	.	.	.	.	8ee\L	8ee\L
.	.	16a/	.	16a/	.	.	.	.	.	.	.
8E\	.	16b/	.	16b/	.	.	.	.	.	8ee\	8ee\
.	.	16a/JJ	.	16a/JJ	.	.	.	.	.	.	.
8E\	.	16g#X/LL	.	16g#X/LL	.	.	.	.	.	8ee\	8ee\
.	.	16f#/	.	16f#/	.	.	.	.	.	.	.
8E\J	.	16e/	.	16e/	.	.	.	.	.	8ee\J	8ee\J
.	.	16d/JJ	.	16d/JJ	.	.	.	.	.	.	.
!	!	!	!	!	!	!	!	!	!	!LO:LB:g=original	!
=62	=62	=62	=62	=62	=62	=62	=62	=62	=62	=62	=62
*tremolo	*	*	*	*	*	*	*	*	*	*	*
!	!	!LO:TX:t=P:problem=mixed beam	!	!LO:TX:t=P:problem=mixed beam	!	!	!	!	!	!	!
8A\L	.	8c#/L	.	8c#/L	.	.	.	.	.	4a/	4ee\
8A\	.	16ee\L	.	16ee\L	.	.	.	.	.	.	.
.	.	16cc#\JJ	.	16cc#\JJ	.	.	.	.	.	.	.
8A\	.	16b/LL	.	16b/LL	.	.	.	.	.	4r	4r
.	.	16a/	.	16a/	.	.	.	.	.	.	.
8A\J	.	16g#X/	.	16g#X/	.	.	.	.	.	.	.
.	.	16a/JJ	.	16a/JJ	.	.	.	.	.	.	.
8E\L	.	16g#X/LL	.	16g#X/LL	.	.	.	.	.	8ee\L	8ee\L
.	.	16a/	.	16a/	.	.	.	.	.	.	.
8E\	.	16b/	.	16b/	.	.	.	.	.	8ee\	8ee\
.	.	16a/JJ	.	16a/JJ	.	.	.	.	.	.	.
8E\	.	16g#/LL	.	16g#/LL	.	.	.	.	.	8ee\	8ee\
.	.	16f#/	.	16f#/	.	.	.	.	.	.	.
8E\J	.	16e/	.	16e/	.	.	.	.	.	8ee\J	8ee\J
.	.	16d/JJ	.	16d/JJ	.	.	.	.	.	.	.
!	!	!	!	!LO:LB:g=original	!	!	!	!	!	!	!
=63	=63	=63	=63	=63	=63	=63	=63	=63	=63	=63	=63
8A\L	.	16c#/LL	.	16c#/LL	.	1r	.	1r	.	8a/L	8a/L
.	.	16A/	.	16A/JJ	.	.	.	.	.	.	.
8A\	.	16e/	.	16e/LL	.	.	.	.	.	16a/L	16a/L
.	.	16c#/JJ	.	16c#/JJ	.	.	.	.	.	16a/JJ	16a/JJ
8A\	.	16a/LL	.	16a/LL	.	.	.	.	.	8a/L	8a/L
.	.	16e/	.	16e/JJ	.	.	.	.	.	.	.
8A\J	.	16cc#/	.	16cc#\LL	.	.	.	.	.	8a/J	8a/J
.	.	16a/JJ	.	16a\JJ	.	.	.	.	.	.	.
*Xtremolo	*	*	*	*	*	*	*	*	*	*	*
!	!	!LO:LB:g=original	!	!	!	!	!	!	!	!	!LO:LB:g=original
!LO:TX:t=P:problem=mixed beam	!	!LO:TX:t=P:problem=mixed beam	!	!LO:TX:t=P:problem=mixed beam	!	!	!	!	!	!	!
8D\L	.	8f#/L	.	8f#/L	.	.	.	.	.	4a/	4a/
8BB\	.	16ff#\L	.	16dd\L	.	.	.	.	.	.	.
.	.	16dd\JJ	.	16b\JJ	.	.	.	.	.	.	.
.	.	8qqa/	.	8qqa/	.	.	.	.	.	.	.
8E\	.	4g#X/	.	4g#X/	.	.	.	.	.	8ee\L	8ee\L
8EE/J	.	.	.	.	.	.	.	.	.	8ee\J	8ee\J
!	!	!	!	!	!	!	!	!LO:LB:g=original	!	!	!
=64	=64	=64	=64	=64	=64	=64	=64	=64	=64	=64	=64
*	*	*tremolo	*	*	*	*	*	*	*	*	*
!	!	!	!LO:DY:t=for	!	!LO:DY:a	!	!	!	!	!	!
8A\L	.	8a/L	f	8a/L	f	8A\	Ag-	8cc#\	Ag-	8a/L	8a/L
8B\	.	8a/	.	8a/	.	8A\	-nus	8cc#\	-nus	8a/	16a/L
.	.	.	.	.	.	.	.	.	.	.	16a/JJ
8c#\	.	8a/	.	8a/	.	4A\	De-	4cc#\	De-	8a/	8a/L
8B\J	.	8a/J	.	8a/J	.	.	.	.	.	8a/J	8a/J
*	*	*Xtremolo	*	*	*	*	*	*	*	*	*
4A\	.	(16dd\LL	.	(16cc#\LL	.	4A\	-i	4cc#\	-i	4a/	4a/
.	.	16g#X\J	.	16g#X\J)	.	.	.	.	.	.	.
.	.	8a\J)	.	8a\J	.	.	.	.	.	.	.
4r	.	(16ee\LL	.	(16ee\LL	.	4r	.	4r	.	4r	4r
.	.	16g#X\J	.	16g#X\J)	.	.	.	.	.	.	.
.	.	8a\J)	.	8a\J	.	.	.	.	.	.	.
=65	=65	=65	=65	=65	=65	=65	=65	=65	=65	=65	=65
*	*	*tremolo	*	*tremolo	*	*	*	*	*	*	*
!	!	!	!	!	!	!	!	!	!	!	!LO:TX:t=P:problem=brak taktu
8A\L	.	8a/L	.	8a/L	.	4A\	qui	4cc#\	qui	8a/L	1ryy
8B\	.	8a/	.	8a/	.	.	.	.	.	16a/L	.
.	.	.	.	.	.	.	.	.	.	16a/JJ	.
8c#\	.	8a/	.	8a/	.	4A\	tol-	4cc#\	tol-	8a/L	.
8B\J	.	8a/J	.	8a/J	.	.	.	.	.	8a/J	.
*	*	*Xtremolo	*	*Xtremolo	*	*	*	*	*	*	*
4A\	.	(16dd\LL	.	(16cc#\LL	.	4A\	-lis	4cc#\	-lis	4a/	.
.	.	16g#X\J	.	16g#X\J)	.	.	.	.	.	.	.
.	.	8a\J)	.	8a\J	.	.	.	.	.	.	.
4r	.	(16ee\LL	.	(16ee\LL	.	4r	.	4r	.	4r	.
.	.	16g#X\J	.	16g#X\J)	.	.	.	.	.	.	.
.	.	8a\J)	.	8a\J	.	.	.	.	.	.	.
=66	=66	=66	=66	=66	=66	=66	=66	=66	=66	=66	=66
!	!	!LO:TX:t=P:problem=mixed beam	!	!LO:TX:t=P:problem=mixed beam	!	!	!	!	!	!	!
8A\L	.	16b/LL	.	16a/LL	.	8A\L	pe-	8cc#\L	pec-	4a/	4ee\
.	.	16aa\	.	16aa\	.	.	.	.	.	.	.
8A\	.	16ee\	.	16ee\	.	8c#\J	.	8ee\J	.	.	.
.	.	16cc#\JJ	.	16cc#\JJ	.	.	.	.	.	.	.
.	.	8qqee/	.	8qqee/	.	8qqc#/	.	16qqee/	.	.	.
8E\	.	4dd\	.	4dd\	.	4B\	-ca-	4dd\	-ca-	4r	4r
8E\J	.	.	.	.	.	.	.	.	.	.	.
!LO:LB:g=original	!	!	!	!	!	!	!	!	!	!	!
!LO:TX:t=P:problem=mixed beam	!	!	!	!	!	!	!	!	!	!	!
8AA/L	.	16cc#\LL	.	16cc#\LL	.	8A\L	-ta	8cc#\L	-ta	4a/	4ee\
.	.	16a\JJ	.	16a\JJ	.	.	.	.	.	.	.
8AA/	.	16e/LL	.	16e/LL	.	8c#\J	.	8ee\J	.	.	.
.	.	16c#/JJ	.	16c#/JJ	.	.	.	.	.	.	.
.	.	8qqe/	.	.	.	8qqc#/	.	8qqee/	.	.	.
8E\	.	4d/	.	4d/	.	4B\	mun-	4dd\	mun-	4r	4r
8E\J	.	.	.	.	.	.	.	.	.	.	.
=67	=67	=67	=67	=67	=67	=67	=67	=67	=67	=67	=67
!	!	!	!	!LO:TX:t=P:problem=mixed beam	!	!	!	!	!	!	!
4AA/	.	8c#/L	.	8c#/L	.	4A\	-di	4cc#\	-di	4a/	4ee\
.	.	8a#X/	.	8cc#\	.	.	.	.	.	.	.
8F#\L	.	8a#/	.	8cc#\	.	8A#X\	mi-	8cc#\	mi-	4r	4r
8F#\J	.	8a#/J	.	8cc#\J	.	8A#\	-se-	8cc#\	-se-	.	.
8F#\L	.	8a#/	.	8cc#\	.	8A#\	-re-	8cc#\	-re-	8f#/L	8f#/L
8F#\	.	(4cc#\	.	4ee\	.	4c#\	.	4ee\	.	16f#/L	16f#/L
.	.	.	.	.	.	.	.	.	.	16f#/JJ	16f#/JJ
8F#\	.	.	.	.	.	.	.	.	.	8f#/L	8f#/L
8F#\J	.	16b\LL	.	16dd\LL	.	16B\LL	.	16dd\LL	.	8f#/J	8f#/J
.	.	16a#X\JJ)	.	16cc#\JJ	.	16A#X\JJ	.	16cc#\JJ	.	.	.
=68	=68	=68	=68	=68	=68	=68	=68	=68	=68	=68	=68
8BB/L	.	8b/L	.	8dd\L	.	4B\	-re	4dd\	-re	4f#/	4f#/
8BB/	.	8g#X/	.	8b\	.	.	.	.	.	.	.
8E/	.	8g#/	.	8b\	.	8G#X/	mi-	8b\	mi-	4r	4r
8E/J	.	8g#/J	.	8b\J	.	8G#/	-se-	8b\	-se-	.	.
*tremolo	*	*	*	*	*	*	*	*	*	*	*
8E\L	.	8g#/	.	8b\	.	8G#/	-re-	8b\	-re-	8ee\L	8ee\L
8E\	.	4b\	.	4dd\	.	4B\	.	4dd\	.	16ee\L	16ee\L
.	.	.	.	.	.	.	.	.	.	16ee\JJ	16ee\JJ
8E\	.	.	.	.	.	.	.	.	.	8ee\L	8ee\L
8E\J	.	(16a/LL	.	(16cc#\LL	.	16A\LL	.	16cc#\LL	.	8ee\J	8ee\J
.	.	16g#X/JJ)	.	16b\JJ)	.	16G#X\JJ	.	16b\JJ	.	.	.
*Xtremolo	*	*	*	*	*	*	*	*	*	*	*
!	!	!	!	!	!	!LO:LB:g=original	!	!LO:LB:g=original	!	!	!
=69	=69	=69	=69	=69	=69	=69	=69	=69	=69	=69	=69
!LO:TX:t=P:problem=mixed beam	!	!	!	!	!	!	!	!	!	!	!
8AA/L	.	8a\L	.	8cc#\L	.	4A\	-re	4cc#\	-re	4a/	4ee\
8AA/	.	8cc#\	.	8ee\	.	.	.	.	.	.	.
8A\	.	8cc#\	.	8ee\	.	8c#\	mi-	8ee\	mi-	4r	4r
8A\J	.	8cc#\J	.	8ee\J	.	8c#\	-se-	8ee\	-se-	.	.
!	!	!	!	!LO:LB:g=original	!	!	!	!	!	!	!
*tremolo	*	*	*	*	*	*	*	*	*	*	*
8A\L	.	8cc#\	.	8ee\	.	8c#\	-re-	8ee\	-re-	8a/	8ee\
8A\	.	4ee\	.	4gg\	.	8e\	-re	8gg\	-re	4ee\	4gg\
8A\	.	.	.	.	.	8e\L	no-	8gg\L	no-	.	.
8A\J	.	(16dd\LL	.	(16ff#\LL	.	16d\L	.	16ff#\L	.	16dd\LL	16ff#\LL
.	.	16cc#\JJ)	.	16ee\JJ)	.	16c#\JJ	.	16ee\JJ	.	16a\JJ	16ee\JJ
*Xtremolo	*	*	*	*	*	*	*	*	*	*	*
!	!	!LO:LB:g=original	!	!	!	!	!	!	!	!LO:LB:g=original	!
=70	=70	=70	=70	=70	=70	=70	=70	=70	=70	=70	=70
4D\	.	4dd\	.	4ff#\	.	4d\	-bis	4ff#\	-bis	4dd\	4ff#\
8D\L	.	16dd\LL	.	16aa\LL	.	8A\	Ag-	8dd\	Ag-	8dd\L	8dd\L
.	.	16dd\	.	16aa\	.	.	.	.	.	.	.
8D\J	.	16dd\	.	16aa\	.	8A\	-nus	8dd\	-nus	8dd\J	8dd\J
.	.	16dd\JJ	.	16aa\JJ	.	.	.	.	.	.	.
*tremolo	*	*	*	*tremolo	*	*	*	*	*	*	*
8D\L	.	16dd\LL	.	16aa\LL	.	4.A/	De-	8dd\	De-	8dd\L	8dd\L
.	.	16dd\	.	16aa\	.	.	.	.	.	.	.
8D\	.	16ccn\	.	16aa\	.	.	.	4ccn\	.	8dd\	8dd\
.	.	16cc\JJ	.	16aa\JJ	.	.	.	.	.	.	.
*	*	*tremolo	*	*	*	*	*	*	*	*	*
8D\	.	16cc\LL	.	16aa\LL	.	.	.	.	.	8dd\	8dd\
.	.	16cc\	.	16aa\	.	.	.	.	.	.	.
8D\J	.	16cc\	.	16aa\	.	16G/LL	.	16b\LL	.	8dd\J	8dd\J
.	.	16cc\JJ	.	16aa\JJ	.	16F#/JJ	.	16a\JJ	.	.	.
*Xtremolo	*	*Xtremolo	*	*Xtremolo	*	*	*	*	*	*	*
=71	=71	=71	=71	=71	=71	=71	=71	=71	=71	=71	=71
8G\L	.	4b\	.	4gg\	.	4G/	-i	4b\	-i	4dd\	4dd\
8G\	.	.	.	.	.	.	.	.	.	.	.
!	!	!	!	!	!	!	!	!LO:TX:t=P:problem=korekta ósemki na ćwierćnutę	!	!	!
8E\	.	16ee\LL	.	16gg#X\LL	.	4B\	qui	4ee\	qui	8ee\L	8ee\L
.	.	16ee\	.	16gg#\	.	.	.	.	.	.	.
8E\J	.	16ee\	.	16gg#\	.	.	.	.	.	8ee\J	8ee\J
.	.	16ee\JJ	.	16gg#\JJ	.	.	.	.	.	.	.
*tremolo	*	*	*	*tremolo	*	*	*	*	*	*	*
8E\L	.	16ee\LL	.	16bb\LL	.	4.B\	tol-	8ee\	tol-	8ee\L	8ee\L
.	.	16ee\	.	16bb\	.	.	.	.	.	.	.
8E\	.	16dd\	.	16bb\	.	.	.	4dd\	.	8ee\	8ee\
.	.	16dd\JJ	.	16bb\JJ	.	.	.	.	.	.	.
*	*	*tremolo	*	*	*	*	*	*	*	*	*
8E\	.	16dd\LL	.	16bb\LL	.	.	.	.	.	8ee\	8ee\
.	.	16dd\	.	16bb\	.	.	.	.	.	.	.
8E\J	.	16dd\	.	16bb\	.	16A\LL	.	16cc#X\LL	.	8ee\J	8ee\J
.	.	16dd\JJ	.	16bb\JJ	.	16G#X\JJ	.	16b\JJ	.	.	.
*Xtremolo	*	*Xtremolo	*	*Xtremolo	*	*	*	*	*	*	*
=72	=72	=72	=72	=72	=72	=72	=72	=72	=72	=72	=72
4A\	.	4cc#X\	.	4aa\	.	8A\	-lis	8cc#\	-lis	4a/	4ee\
.	.	.	.	.	.	8e\	pe-	8gg\	pec-	.	.
8A\L	.	16ee\LL	.	16ggn\LL	.	8e\	-ca-	8gg\	-ca-	8ee\L	8gg\L
.	.	16ee\	.	16gg\	.	.	.	.	.	.	.
8A\J	.	16ee\	.	16gg\	.	8e\	-ta	8gg\	-ta	8ee\J	8gg\J
.	.	16ee\JJ	.	16gg\JJ	.	.	.	.	.	.	.
8d\L	.	8dd\L	.	8ff#\L	.	8d\	mun-	8ff#\	mun-	8dd\L	8ff#\L
8A\	.	8cc#\	.	8ee\J	.	8c#\	-di	8ee\	-di	8a\	8ee\
!	!	!	!	!	!	!	!	!LO:LB:g=original	!	!	!
*	*	*	*	*tremolo	*	*	*	*	*	*	*
8d\	.	8ff#\	.	16aa\LL	.	8d\	mi-	8ff#\	mi-	8dd\	8ff#\
.	.	.	.	16aa\	.	.	.	.	.	.	.
8A\J	.	8ee\J	.	16aa\	.	8c#\	-se-	8ee\	-se-	8a\J	8ee\J
.	.	.	.	16aa\JJ	.	.	.	.	.	.	.
!	!	!	!	!	!	!LO:LB:g=original	!	!	!	!	!LO:LB:g=original
=73	=73	=73	=73	=73	=73	=73	=73	=73	=73	=73	=73
8d\L	.	8ff#\L	.	16aa\LL	.	8d\	-re-	8ff#\	-re-	8dd\L	8ff#\L
.	.	.	.	16aa\	.	.	.	.	.	.	.
8A\	.	8ee\J	.	16aa\	.	8c#\	-re	8ee\	-re	8a\	8ee\
.	.	.	.	16aa\JJ	.	.	.	.	.	.	.
8A\	.	16ee\LL	.	16ccc#\LL	.	8c#\	mi-	8ee\	mi-	8a\	8ee\
.	.	16ee\	.	16ccc#\	.	.	.	.	.	.	.
8A\J	.	16ee\	.	16ccc#\	.	8c#\	-se-	8ee\	-se-	8a\J	8ee\J
.	.	16ee\JJ	.	16ccc#\JJ	.	.	.	.	.	.	.
*	*	*	*	*Xtremolo	*	*	*	*	*	*	*
!LO:TX:t=P:problem=mixed beam	!	!	!	!	!	!	!	!	!	!	!
8D\L	.	8ff#\L	.	8ddd\L	.	8d\	-re-	8ff#\	-re-	8dd\L	8ff#\L
8G\	.	8ee\J	.	8gg\J	.	8e\	-re	8gg\	-re	8ee\J	8gg\J
.	.	8qqdd/	.	8qqff#/	.	.	.	.	.	.	.
8A\	.	4cc#\	.	4ee\	.	4c#\	no-	4ee\	no-	4a/	4ee\
8AA/J	.	.	.	.	.	.	.	.	.	.	.
=74	=74	=74	=74	=74	=74	=74	=74	=74	=74	=74	=74
4D\	.	4dd\	.	4ff#\	.	4d\	-bis	4ff#\	-bis	4dd\	4ff#\
*	*	*	*	*	*	*	*ij	*	*	*	*
4A\	.	4cc#\	.	4ee\	.	4c#\	no-	4ee\	no-	4a/	4ee\
4d\	.	4dd\	.	4ff#\	.	4d\	-bis	4ff#\	-bis	4dd\	4ff#\
*	*	*	*	*	*	*	*Xij	*	*	*	*
4A\	.	4ee\	.	4ccc#\	.	4c#\	no-	4ee\	no-	4a/	4ee\
=75	=75	=75	=75	=75	=75	=75	=75	=75	=75	=75	=75
4D\	.	4ff#\	.	4ddd\	.	4d\	-bis	4ff#\	-bis	4dd\	4ff#\
4r	.	4r	.	4r	.	4r	.	4r	.	4r	4r
!	!	!	!	!	!	!	!	!	!	!	!LO:TX:b:t=Laus Deo
!LO:TX:t=P:||:problem=ozdobna kreska taktowa 	!	!LO:TX:t=P:||:problem=ozdobna kreska taktowa 	!	!LO:TX:t=P:||:problem=ozdobna kreska taktowa 	!	!	!	!	!	!LO:TX:t=P:||:problem=ozdobna kreska taktowa 	!LO:TX:t=P:||:problem=ozdobna kreska taktowa 
2r	.	2r	.	2r	.	2r	.	2r	.	2r	2r
==	==	==	==	==	==	==	==	==	==	==	==
*-	*-	*-	*-	*-	*-	*-	*-	*-	*-	*-	*-
!!!system-decoration: [(s1,s2)][(s3,s4)][(s5,s6)]s7
!!!EED: Leszek Kubiak
!!!EEV: 2020-10-19
!!!ENC: Krzysztof Stępień
!!!END: 2020-05-21
!!!YEC: Copyright 2022 Narodowy Instytut Fryderyka Chopina (https://polishscores.org)
!!!YEM: Licence CC BY 4.0 (https://creativecommons.org/licenses/by/4.0)
